!!!!SEGMENT: pl-kk--kk-i-516--001_holzbauer-ignaz--motetto-ut-dulces-noctis.krn
!!!cenid: 17xx:1868
!!!COM: Holzbauer, Ignaz
!!!COM-rismid: pe30001549
!!!CDT: 1711/09/18-1783/04/07
!!!CNT: German
!!!OTL: Motetto – Ut dulces noctis
!!!PDT:
!!!AGN: Sacred; Motet
!!!SMS-siglum: PL-Kk
!!!SMS-shelfmark: Kk.I.516
!!!SMS-shelfwork: 001-001 M
!!!SMS-variant:
!!!SMS-altvar:
!!!NIFC-rismid: 1001139107
!!!URL-scan: http://repozytorium.nifc.pl/skany/pl-kk-nut--i-516
!!!ONB-nifc: UWAGA: części Motetu: 1. Ut dulces noctis (Aria), 2. Quam dulce quam decorum (Chorus)
**kern	**fb	**dynam	**kern	**dynam	**kern	**dynam	**kern	**dynam	**kern	**kern	**kern	**kern	**text	**kern	**kern
*part10	*	*part10	*part9	*part9	*part8	*part8	*part7	*part7	*part6	*part5	*part4	*part3	*part3	*part2	*part1
*group	*	*group	*group3	*group3	*group3	*group3	*group3	*group3	*group2	*group2	*group2	*group2	*group2	*group1	*group1
*staff10	*	*	*staff9	*	*staff8	*	*staff7	*	*staff6	*staff5	*staff4	*staff3	*staff3	*staff2	*staff1
*I"Organo.	*	*	*I"Alto Viola	*	*I"Violino 2do	*	*I"Violino Imo	*	*I"Baſso	*I"Tenore	*I"Alto.	*I"Soprano Conc[er]to	*	*I"Cornu 2do in B	*I"Cornu 1mo in B|o
*I'org	*	*	*I'vla	*	*I'vl 2	*	*I'vl 1	*	*I'B	*I'T	*I'A	*I'S	*	*I'cor in B|b	*I'cor in B|b
*clefF4	*	*	*clefC3	*	*clefG2	*	*clefG2	*	*clefF4	*clefC4	*clefC3	*clefC1	*	*clefG2	*clefG2
*	*	*	*	*	*	*	*	*	*	*	*	*	*	*ITrd1c2	*ITrd1c2
*k[b-e-a-]	*	*	*k[b-e-a-]	*	*k[b-e-a-]	*	*k[b-e-a-]	*	*k[b-e-a-]	*k[b-e-a-]	*k[b-e-a-]	*k[b-e-a-]	*	*k[b-e-a-]	*k[b-e-a-]
*E-:	*	*	*E-:	*	*E-:	*	*E-:	*	*E-:	*E-:	*E-:	*E-:	*	*E-:	*E-:
*M2/4	*	*	*M2/4	*	*M2/4	*	*M2/4	*	*M2/4	*M2/4	*M2/4	*M2/4	*	*M2/4	*M2/4
*2\right	*	*	*2\right	*	*	*	*2\right	*	*	*	*	*2\right	*	*	*
*	*above	*	*	*	*	*	*	*	*	*	*	*	*	*	*
!	!	!	!	!	!	!	!	!	!	!	!	!	!	!	!LO:TX:a:i:t=Aria Tacet.
!LO:TX:a:i:t=Andante	!	!	!LO:TX:a:i:t=Andante	!	!LO:TX:a:i:t=And[an]te	!	!LO:TX:a:i:t=Andante	!	!LO:TX:a:i:t=Recitativo et Aria Tacet	!LO:TX:a:i:t=Recitativo et Aria Tacet.	!LO:TX:a:i:t=Recitat&colon; et Aria Tacet	!LO:TX:a:i:t=And[an]te	!	!LO:TX:a:i:t=Aria Tacet.	!
!	!	!	!	!	!	!	!	!	!	!	!	!LO:TX:a:t=P:problem:w źródle następujące krzyżyki przykluczowe - b- e- a-	!	!	!
8r	.	.	8r	.	8r	.	8b-\	.	8ryy	8ryy	8ryy	8r	.	8ryy	8ryy
=1	=1	=1	=1	=1	=1	=1	=1	=1	=1	=1	=1	=1	=1	=1	=1
!	!	!	!LO:TX:t=P:problem:2\right:global	!	!	!	!LO:TX:t=P:problem:2\right:global	!	!	!	!	!	!	!	!
8r	.	.	2e-\	.	2g/	.	2ee-\	.	2ryy	2ryy	2ryy	2r	.	2ryy	2ryy
!LO:TX:a:i:t=ſolo	!	!	!	!	!	!	!	!	!	!	!	!	!	!	!
!	!	!	!	!	!	!	!	!	!	!	!	!LO:TX:a:t=P:problem:w źródle pauza 18-taktowa oznaczona poziomą belką	!	!	!
!	!	!	!	!	!	!	!	!	!	!	!	!LO:TX:a:t=18.	!	!	!
8E-\L	.	.	.	.	.	.	.	.	.	.	.	.	.	.	.
8G\	.	.	.	.	.	.	.	.	.	.	.	.	.	.	.
8E-\J	.	.	.	.	.	.	.	.	.	.	.	.	.	.	.
=2	=2	=2	=2	=2	=2	=2	=2	=2	=2	=2	=2	=2	=2	=2	=2
2BB-/	X X 7	.	2f\	.	2a-/	.	8r	.	2ryy	2ryy	2ryy	2ryy	.	2ryy	2ryy
.	.	.	.	.	.	.	16.dd\LL	.	.	.	.	.	.	.	.
.	.	.	.	.	.	.	32ee-\JJk	.	.	.	.	.	.	.	.
.	.	.	.	.	.	.	16.ff\LL	.	.	.	.	.	.	.	.
.	.	.	.	.	.	.	32gg\K	.	.	.	.	.	.	.	.
.	.	.	.	.	.	.	16.aa-\	.	.	.	.	.	.	.	.
.	.	.	.	.	.	.	32dd\JJk	.	.	.	.	.	.	.	.
=3	=3	=3	=3	=3	=3	=3	=3	=3	=3	=3	=3	=3	=3	=3	=3
8r	.	.	2e-\	.	2g/	.	2ee-\	.	2ryy	2ryy	2ryy	2ryy	.	2ryy	2ryy
8E-\L	.	.	.	.	.	.	.	.	.	.	.	.	.	.	.
8G\	.	.	.	.	.	.	.	.	.	.	.	.	.	.	.
8E-\J	.	.	.	.	.	.	.	.	.	.	.	.	.	.	.
=4	=4	=4	=4	=4	=4	=4	=4	=4	=4	=4	=4	=4	=4	=4	=4
2BB-/	X X 7	.	2f\	.	2a-/	.	8r	.	2ryy	2ryy	2ryy	2ryy	.	2ryy	2ryy
.	.	.	.	.	.	.	16.dd\LL	.	.	.	.	.	.	.	.
.	.	.	.	.	.	.	32ee-\JJk	.	.	.	.	.	.	.	.
.	.	.	.	.	.	.	16.ff\LL	.	.	.	.	.	.	.	.
.	.	.	.	.	.	.	32gg\K	.	.	.	.	.	.	.	.
.	.	.	.	.	.	.	16.aa-\	.	.	.	.	.	.	.	.
.	.	.	.	.	.	.	32dd\JJk	.	.	.	.	.	.	.	.
=5	=5	=5	=5	=5	=5	=5	=5	=5	=5	=5	=5	=5	=5	=5	=5
4E-\	.	.	4e-\	.	8g/	.	8ee-\	.	2ryy	2ryy	2ryy	2ryy	.	2ryy	2ryy
.	X X 3	.	.	.	4g/	.	4b-\	.	.	.	.	.	.	.	.
4E-\	X 6 4	.	4e-\	.	.	.	.	.	.	.	.	.	.	.	.
.	.	.	.	.	8a-/	.	8cc\	.	.	.	.	.	.	.	.
!	!	!	!	!	!	!	!LO:LB:g=original	!	!	!	!	!	!	!	!
=6	=6	=6	=6	=6	=6	=6	=6	=6	=6	=6	=6	=6	=6	=6	=6
.	.	.	.	.	8qqg/	.	.	.	.	.	.	.	.	.	.
8D\L	6 5	.	8B-/L	.	8f/L	.	8a-/L	.	2ryy	2ryy	2ryy	2ryy	.	2ryy	2ryy
8E-\J	.	.	8B-/J	.	8e-/J	.	8g/J	.	.	.	.	.	.	.	.
4r	.	.	4r	.	4r	.	4r	.	.	.	.	.	.	.	.
!	!	!	!	!	!LO:LB:g=original	!	!	!	!	!	!	!	!	!	!
=7	=7	=7	=7	=7	=7	=7	=7	=7	=7	=7	=7	=7	=7	=7	=7
*	*	*	*	*	*Xtuplet	*	*Xtuplet	*	*	*	*	*	*	*	*
8r	.	.	8r	.	[<4f/	.	[<4f/	.	2ryy	2ryy	2ryy	2ryy	.	2ryy	2ryy
8A-\L	X X 6	.	8c/L	.	.	.	.	.	.	.	.	.	.	.	.
!	!	!	!	!	!LO:TUP:b:problem:kropka zamiast numeru	!	!LO:TUP:b:problem:klamra łukowa, kropka zamiast numeru	!	!	!	!	!	!	!	!
8A-\	.	.	8c/	.	24f/LL]	.	24f/LL]	.	.	.	.	.	.	.	.
.	.	.	.	.	24cc/	.	24cc/	.	.	.	.	.	.	.	.
.	.	.	.	.	24b-/JJ	.	24b-/JJ	.	.	.	.	.	.	.	.
!	!	!	!	!	!LO:TUP:b:problem:kropka zamiast numeru	!	!LO:TUP:b:problem:klamra łukowa, kropka zamiast numeru	!	!	!	!	!	!	!	!
8A-\J	.	.	8c/J	.	24a-/LL	.	24a-/LL	.	.	.	.	.	.	.	.
.	.	.	.	.	24g/	.	24g/	.	.	.	.	.	.	.	.
.	.	.	.	.	24f/JJ	.	24f/JJ	.	.	.	.	.	.	.	.
=8	=8	=8	=8	=8	=8	=8	=8	=8	=8	=8	=8	=8	=8	=8	=8
8r	.	.	8r	.	(<4e-/	.	(4e-/	.	2ryy	2ryy	2ryy	2ryy	.	2ryy	2ryy
8B-\L	X X 4	.	8B-/L	.	.	.	.	.	.	.	.	.	.	.	.
!	!	!	!	!	!	!	!LO:TUP:b:problem:klamra łukowa, kropka zamiast numeru	!	!	!	!	!	!	!	!
8B-\	X X 3	.	8B-/	.	24d/LL)	.	24d/LL)	.	.	.	.	.	.	.	.
.	.	.	.	.	24c/	.	24c/	.	.	.	.	.	.	.	.
.	.	.	.	.	24d/JJ	.	24d/JJ	.	.	.	.	.	.	.	.
!	!	!	!	!	!LO:TUP:b:problem:klamra łukowa	!	!LO:TUP:b:problem:klamra łukowa, kropka zamiast numeru	!	!	!	!	!	!	!	!
8A-\J	X X 3	.	8A-/J	.	(<24e-/LL	.	24e-/LL	.	.	.	.	.	.	.	.
.	.	.	.	.	24d/)	.	24d/	.	.	.	.	.	.	.	.
.	.	.	.	.	24c/JJ	.	24c/JJ	.	.	.	.	.	.	.	.
!LO:LB:g=original	!	!	!	!	!	!	!	!	!	!	!	!	!	!	!
=9	=9	=9	=9	=9	=9	=9	=9	=9	=9	=9	=9	=9	=9	=9	=9
*	*	*	*	*	*tuplet	*	*tuplet	*	*	*	*	*	*	*	*
!LO:TX:t=P:problem:mixed beam	!	!	!	!	!	!	!	!	!	!	!	!	!	!	!
!	!	!	!	!	!LO:TUP:b	!	!LO:TUP:b	!	!	!	!	!	!	!	!
8G\L	X X 6	.	8G/	.	24A-/LL	.	24A-/LL	.	2ryy	2ryy	2ryy	2ryy	.	2ryy	2ryy
.	.	.	.	.	24c/	.	24c/	.	.	.	.	.	.	.	.
.	.	.	.	.	24d/	.	24d/	.	.	.	.	.	.	.	.
8E-\	.	.	4E-/	.	24e-/	.	24e-/	.	.	.	.	.	.	.	.
.	.	.	.	.	24f/	.	24f/	.	.	.	.	.	.	.	.
.	.	.	.	.	24g/JJ	.	24g/JJ	.	.	.	.	.	.	.	.
*	*	*	*	*	*	*	*Xtuplet	*	*	*	*	*	*	*	*
.	.	.	.	.	8qqB-/	.	8qqB-/	.	.	.	.	.	.	.	.
8F\	X X 7	.	.	.	4A-/	.	4A-/	.	.	.	.	.	.	.	.
8BB-/J	X X 7	.	8D/	.	.	.	.	.	.	.	.	.	.	.	.
!	!	!	!LO:LB:g=original	!	!	!	!	!	!	!	!	!	!	!	!
=10	=10	=10	=10	=10	=10	=10	=10	=10	=10	=10	=10	=10	=10	=10	=10
4E-\	.	.	2e- 2B-/	.	4G/	.	24e-LL 24G/	.	2ryy	2ryy	2ryy	2ryy	.	2ryy	2ryy
.	.	.	.	.	.	.	24G/	.	.	.	.	.	.	.	.
.	.	.	.	.	.	.	24G/JJ	.	.	.	.	.	.	.	.
.	.	.	.	.	.	.	24G/LL	.	.	.	.	.	.	.	.
.	.	.	.	.	.	.	24G/	.	.	.	.	.	.	.	.
.	.	.	.	.	.	.	24G/JJ	.	.	.	.	.	.	.	.
8r	.	.	.	.	8e-/L	.	24g/LL	.	.	.	.	.	.	.	.
.	.	.	.	.	.	.	24e-/	.	.	.	.	.	.	.	.
.	.	.	.	.	.	.	24B-/JJ	.	.	.	.	.	.	.	.
8E-\	.	.	.	.	8g/J	.	24B-/LL	.	.	.	.	.	.	.	.
.	.	.	.	.	.	.	24B-/	.	.	.	.	.	.	.	.
.	.	.	.	.	.	.	24B-/JJ	.	.	.	.	.	.	.	.
!	!	!	!	!	!	!	!LO:LB:g=original	!	!	!	!	!	!	!	!
=11	=11	=11	=11	=11	=11	=11	=11	=11	=11	=11	=11	=11	=11	=11	=11
8D\	X X 5	.	8f 8B-/	.	8a-/	.	24a-/LL	.	2ryy	2ryy	2ryy	2ryy	.	2ryy	2ryy
.	X X 6	.	.	.	.	.	24f/	.	.	.	.	.	.	.	.
.	.	.	.	.	.	.	24d/JJ	.	.	.	.	.	.	.	.
8r	.	.	4f 4B-/	.	4a-/	.	24B-/LL	.	.	.	.	.	.	.	.
.	.	.	.	.	.	.	24B-/	.	.	.	.	.	.	.	.
.	.	.	.	.	.	.	24B-/JJ	.	.	.	.	.	.	.	.
16r	.	.	.	.	.	.	8B-/	.	.	.	.	.	.	.	.
!LO:TX:t=P:problem:mixed beam	!	!	!	!	!	!	!	!	!	!	!	!	!	!	!
16D\LL	.	.	.	.	.	.	.	.	.	.	.	.	.	.	.
16F\	.	.	8f 8B-/	.	8a-/	.	8r	.	.	.	.	.	.	.	.
16BB-/JJ	.	.	.	.	.	.	.	.	.	.	.	.	.	.	.
!	!	!	!	!	!LO:LB:g=original	!	!	!	!	!	!	!	!	!	!
=12	=12	=12	=12	=12	=12	=12	=12	=12	=12	=12	=12	=12	=12	=12	=12
!LO:TX:a:t=P:problem:w źródle takty 12-13 zapisane jako repetycja taktów 10-11	!	!	!	!	!	!	!	!	!	!	!	!	!	!	!
4E-\	.	.	2e- 2B-/	.	2g/	.	24e-LL 24G/	.	2ryy	2ryy	2ryy	2ryy	.	2ryy	2ryy
.	.	.	.	.	.	.	24G/	.	.	.	.	.	.	.	.
.	.	.	.	.	.	.	24G/JJ	.	.	.	.	.	.	.	.
.	.	.	.	.	.	.	24G/LL	.	.	.	.	.	.	.	.
.	.	.	.	.	.	.	24G/	.	.	.	.	.	.	.	.
.	.	.	.	.	.	.	24G/JJ	.	.	.	.	.	.	.	.
8r	.	.	.	.	.	.	24g/LL	.	.	.	.	.	.	.	.
.	.	.	.	.	.	.	24e-/	.	.	.	.	.	.	.	.
.	.	.	.	.	.	.	24B-/JJ	.	.	.	.	.	.	.	.
8E-\	.	.	.	.	.	.	24B-/LL	.	.	.	.	.	.	.	.
.	.	.	.	.	.	.	24B-/	.	.	.	.	.	.	.	.
.	.	.	.	.	.	.	24B-/JJ	.	.	.	.	.	.	.	.
=13	=13	=13	=13	=13	=13	=13	=13	=13	=13	=13	=13	=13	=13	=13	=13
8D\	X X 5	.	8f 8B-/	.	8a-/	.	24a-/LL	.	2ryy	2ryy	2ryy	2ryy	.	2ryy	2ryy
.	X X 6	.	.	.	.	.	24f/	.	.	.	.	.	.	.	.
.	.	.	.	.	.	.	24d/JJ	.	.	.	.	.	.	.	.
8r	.	.	4f 4B-/	.	4a-/	.	24B-/LL	.	.	.	.	.	.	.	.
.	.	.	.	.	.	.	24B-/	.	.	.	.	.	.	.	.
.	.	.	.	.	.	.	24B-/JJ	.	.	.	.	.	.	.	.
16r	.	.	.	.	.	.	8B-/	.	.	.	.	.	.	.	.
!LO:TX:t=P:problem:mixed beam	!	!	!	!	!	!	!	!	!	!	!	!	!	!	!
16D\LL	.	.	.	.	.	.	.	.	.	.	.	.	.	.	.
16F\	.	.	8f 8B-/	.	8a-/	.	8r	.	.	.	.	.	.	.	.
16BB-/JJ	.	.	.	.	.	.	.	.	.	.	.	.	.	.	.
=14	=14	=14	=14	=14	=14	=14	=14	=14	=14	=14	=14	=14	=14	=14	=14
!	!	!	!	!	!LO:TUP:b	!	!	!	!	!	!	!	!	!	!
8E-\L	.	.	4B-/	.	24g/LL	.	24g/LL	.	2ryy	2ryy	2ryy	2ryy	.	2ryy	2ryy
.	.	.	.	.	24e-/	.	24e-/	.	.	.	.	.	.	.	.
.	.	.	.	.	24e-/	.	24e-/JJ	.	.	.	.	.	.	.	.
8e-\J	.	.	.	.	24e-/	.	24e-/LL	.	.	.	.	.	.	.	.
.	.	.	.	.	24e-/	.	24e-/	.	.	.	.	.	.	.	.
.	.	.	.	.	24e-/JJ	.	24e-/JJ	.	.	.	.	.	.	.	.
!	!	!	!	!	!LO:TX:t=P:problem:mixed beam	!	!LO:TX:t=P:problem:mixed beam	!	!	!	!	!	!	!	!
8r	.	.	4B-/	.	24b-\LL	.	24b-\LL	.	.	.	.	.	.	.	.
.	.	.	.	.	24A-/	.	24B-/	.	.	.	.	.	.	.	.
.	.	.	.	.	24A-/	.	24B-/JJ	.	.	.	.	.	.	.	.
8d\	X X 6	.	.	.	24A-/	.	24B-/LL	.	.	.	.	.	.	.	.
.	.	.	.	.	24A-/	.	24B-/	.	.	.	.	.	.	.	.
.	.	.	.	.	24A-/JJ	.	24B-/JJ	.	.	.	.	.	.	.	.
!	!	!	!	!	!	!	!LO:LB:g=original	!	!	!	!	!	!	!	!
=15	=15	=15	=15	=15	=15	=15	=15	=15	=15	=15	=15	=15	=15	=15	=15
!	!	!	!	!	!LO:TX:t=P:problem:mixed beam	!	!LO:TX:t=P:problem:mixed beam	!	!	!	!	!	!	!	!
8r	.	.	4c/	.	24ee-\LL	.	24ee-\LL	.	2ryy	2ryy	2ryy	2ryy	.	2ryy	2ryy
.	.	.	.	.	24e-/	.	24e-/	.	.	.	.	.	.	.	.
.	.	.	.	.	24e-/	.	24e-/JJ	.	.	.	.	.	.	.	.
16c\LL	X X 7	.	.	.	24e-/	.	24e-/LL	.	.	.	.	.	.	.	.
.	.	.	.	.	24e-/	.	24e-/	.	.	.	.	.	.	.	.
16B-\JJ	.	.	.	.	.	.	.	.	.	.	.	.	.	.	.
.	.	.	.	.	24e-/JJ	.	24e-/JJ	.	.	.	.	.	.	.	.
!	!	!	!	!	!LO:TX:t=P:problem:mixed beam	!	!LO:TX:t=P:problem:mixed beam	!	!	!	!	!	!	!	!
8An\L	.	.	8c/L	.	24e-/LL	.	24e-/LL	.	.	.	.	.	.	.	.
.	.	.	.	.	24cc\	.	24ee-\	.	.	.	.	.	.	.	.
.	.	.	.	.	24cc\	.	24ee-\JJ	.	.	.	.	.	.	.	.
8G\J	.	.	8B-/J	.	24cc\	.	24ee-\LL	.	.	.	.	.	.	.	.
.	.	.	.	.	24cc\	.	24ee-\	.	.	.	.	.	.	.	.
.	.	.	.	.	24cc\JJ	.	24ee-\JJ	.	.	.	.	.	.	.	.
!	!	!	!	!	!LO:LB:g=original	!	!	!	!	!	!	!	!	!	!
=16	=16	=16	=16	=16	=16	=16	=16	=16	=16	=16	=16	=16	=16	=16	=16
*tremolo	*	*	*tremolo	*	*	*	*	*	*	*	*	*	*	*	*
8F\L	X X 4	.	8An/L	.	16.cc\LL	.	16.ee-\LL	.	2ryy	2ryy	2ryy	2ryy	.	2ryy	2ryy
.	X 7 3	.	.	.	32b-\K	.	32dd\K	.	.	.	.	.	.	.	.
8F\	.	.	8A/	.	16.an\	.	16.cc\	.	.	.	.	.	.	.	.
.	.	.	.	.	32g\JJk	.	32b-\JJk	.	.	.	.	.	.	.	.
8F\	.	.	8A/	.	16.f/LL	.	16.an/LL	.	.	.	.	.	.	.	.
.	.	.	.	.	32e-/K	.	32g/K	.	.	.	.	.	.	.	.
8F\J	.	.	8A/J	.	16.d/	.	16.f/	.	.	.	.	.	.	.	.
.	.	.	.	.	32c/JJk	.	32e-/JJk	.	.	.	.	.	.	.	.
*Xtremolo	*	*	*Xtremolo	*	*	*	*	*	*	*	*	*	*	*	*
=17	=17	=17	=17	=17	=17	=17	=17	=17	=17	=17	=17	=17	=17	=17	=17
*	*	*	*	*	*Xtuplet	*	*	*	*	*	*	*	*	*	*
!	!	!	!	!	!LO:TX:t=P:problem:mixed beam	!	!LO:TX:t=P:problem:mixed beam	!	!	!	!	!	!	!	!
4F\	.	.	4B-/	.	24B-/LL	.	24d/LL	.	2ryy	2ryy	2ryy	2ryy	.	2ryy	2ryy
.	.	.	.	.	24bb-\	.	24bb-\	.	.	.	.	.	.	.	.
.	.	.	.	.	24ff\JJ	.	24ff\JJ	.	.	.	.	.	.	.	.
.	.	.	.	.	24dd\LL	.	24dd\LL	.	.	.	.	.	.	.	.
.	.	.	.	.	24ff\	.	24ff\	.	.	.	.	.	.	.	.
.	.	.	.	.	24dd\JJ	.	24dd\JJ	.	.	.	.	.	.	.	.
4r	.	.	4r	.	24b-/LL	.	24b-/LL	.	.	.	.	.	.	.	.
.	.	.	.	.	24b-/	.	24b-/	.	.	.	.	.	.	.	.
.	.	.	.	.	24f/JJ	.	24f/JJ	.	.	.	.	.	.	.	.
.	.	.	.	.	24d/LL	.	24d/LL	.	.	.	.	.	.	.	.
.	.	.	.	.	24f/	.	24f/	.	.	.	.	.	.	.	.
.	.	.	.	.	24d/JJ	.	24d/JJ	.	.	.	.	.	.	.	.
=18	=18	=18	=18	=18	=18	=18	=18	=18	=18	=18	=18	=18	=18	=18	=18
*Xtuplet	*	*	*Xtuplet	*	*	*	*	*	*	*	*	*	*	*	*
!	!	!	!	!LO:DY:b:t=f.	!	!	!	!	!	!	!	!	!	!	!
24r	.	.	24r	f	8B-/	.	8B-/	.	2ryy	2ryy	2ryy	2ryy	.	2ryy	2ryy
24B-\LL	.	.	24b-\LL	.	.	.	.	.	.	.	.	.	.	.	.
24F\JJ	.	.	24f\JJ	.	.	.	.	.	.	.	.	.	.	.	.
!LO:TUP:a:problem:klamra łukowa, kropka zamiast numeru	!	!	!	!	!	!	!	!	!	!	!	!	!	!	!
24D\LL	.	.	24d\LL	.	8r	.	8r	.	.	.	.	.	.	.	.
24F\	.	.	24f\	.	.	.	.	.	.	.	.	.	.	.	.
24D\JJ	.	.	24d\JJ	.	.	.	.	.	.	.	.	.	.	.	.
!LO:TX:t=P:problem:mixed beam	!	!	!	!	!	!	!	!	!	!	!	!	!	!	!
!LO:TUP:a:problem:klamra łukowa, kropka zamiast numeru	!	!	!LO:TX:t=P:problem:mixed beam	!	!	!	!	!	!	!	!	!	!	!	!
24BB-/LL	.	.	24B-/LL	.	8b- 8d/	.	8bb- 8b- 8d\	.	.	.	.	.	.	.	.
24B-\	.	.	24b-\	.	.	.	.	.	.	.	.	.	.	.	.
24F\JJ	.	.	24f\JJ	.	.	.	.	.	.	.	.	.	.	.	.
!LO:TUP:a:problem:klamra łukowa, kropka zamiast numeru	!	!	!	!	!	!	!	!	!	!	!	!	!	!	!
24D\LL	.	.	24d\LL	.	8r	.	8r	.	.	.	.	.	.	.	.
24F\	.	.	24f\	.	.	.	.	.	.	.	.	.	.	.	.
24D\JJ	.	.	24d\JJ	.	.	.	.	.	.	.	.	.	.	.	.
!LO:LB:g=original	!	!	!LO:LB:g=original	!	!	!	!	!	!	!	!	!	!	!	!
=19	=19	=19	=19	=19	=19	=19	=19	=19	=19	=19	=19	=19	=19	=19	=19
4BB-/	.	.	4B-/	.	4b- 4d/	.	4bb- 4b- 4d\	.	2ryy	2ryy	2ryy	4r	.	2ryy	2ryy
4r	.	.	4r	.	4r	.	4r	.	.	.	.	8r	.	.	.
.	.	.	.	.	.	.	.	.	.	.	.	8b-\	Ut	.	.
!	!	!	!	!	!	!	!LO:LB:g=original	!	!	!	!	!	!	!	!
=20	=20	=20	=20	=20	=20	=20	=20	=20	=20	=20	=20	=20	=20	=20	=20
!LO:TX:t=P:problem:2\right:global	!	!	!	!	!	!	!	!	!	!	!	!	!	!	!
*	*	*	*	*	*tremolo	*	*	*	*	*	*	*	*	*	*
!	!	!	!	!	!	!LO:DY:rj	!	!	!	!	!	!	!	!	!
!	!	!LO:DY:b:t=pi	!	!LO:DY:b:t=pia	!	!LO:DY:b:t=po	!	!	!	!	!	!	!	!	!
2E-\	.	p	2e-\	p	16gLL 16B-/	p	16r	.	2ryy	2ryy	2ryy	[<2ee-\	dul-	2ryy	2ryy
!	!	!	!	!	!	!	!	!LO:DY:b:t=pia	!	!	!	!	!	!	!
.	.	.	.	.	16g 16B-/	.	(>16ee-\LL	p	.	.	.	.	.	.	.
.	.	.	.	.	16g 16B-/	.	16dd\	.	.	.	.	.	.	.	.
.	.	.	.	.	16g 16B-/	.	16ee-\JJ)	.	.	.	.	.	.	.	.
.	.	.	.	.	16g 16B-/	.	(>16ff\LL	.	.	.	.	.	.	.	.
.	.	.	.	.	16g 16B-/	.	16ee-\	.	.	.	.	.	.	.	.
.	.	.	.	.	16g 16B-/	.	16gg\)	.	.	.	.	.	.	.	.
.	.	.	.	.	16gJJ 16B-/	.	16bb-\JJ	.	.	.	.	.	.	.	.
*	*	*	*	*	*Xtremolo	*	*	*	*	*	*	*	*	*	*
!	!	!	!	!	!LO:LB:g=original	!	!	!	!	!	!	!	!	!	!
=21	=21	=21	=21	=21	=21	=21	=21	=21	=21	=21	=21	=21	=21	=21	=21
*	*	*	*	*	*tremolo	*	*	*	*	*	*	*	*	*	*
2BB-/	X X 7	.	2f\	.	16a-LL 16B-/	.	4b-\	.	2ryy	2ryy	2ryy	8ee-\]	.	2ryy	2ryy
.	.	.	.	.	16a- 16B-/	.	.	.	.	.	.	.	.	.	.
.	.	.	.	.	16a- 16B-/	.	.	.	.	.	.	16.dd\LL	-ces	.	.
.	.	.	.	.	16a- 16B-/	.	.	.	.	.	.	.	.	.	.
.	.	.	.	.	.	.	.	.	.	.	.	32ee-\JJk	.	.	.
.	.	.	.	.	16a- 16B-/	.	4r	.	.	.	.	16.ff\LL	no-	.	.
.	.	.	.	.	16a- 16B-/	.	.	.	.	.	.	.	.	.	.
.	.	.	.	.	.	.	.	.	.	.	.	32gg\K	.	.	.
.	.	.	.	.	16a- 16B-/	.	.	.	.	.	.	16.aa-\JJ	.	.	.
.	.	.	.	.	16a-JJ 16B-/	.	.	.	.	.	.	.	.	.	.
.	.	.	.	.	.	.	.	.	.	.	.	32dd\	-ctis	.	.
*	*	*	*	*	*Xtremolo	*	*	*	*	*	*	*	*	*	*
=22	=22	=22	=22	=22	=22	=22	=22	=22	=22	=22	=22	=22	=22	=22	=22
*	*	*	*	*	*tremolo	*	*	*	*	*	*	*	*	*	*
.	.	.	.	.	.	.	.	.	.	.	.	8qqff/	.	.	.
2E-\	.	.	2e-\	.	16gLL 16B-/	.	16r	.	2ryy	2ryy	2ryy	2ee-\	Stel-	2ryy	2ryy
.	.	.	.	.	16g 16B-/	.	(>16ee-\LL	.	.	.	.	.	.	.	.
.	.	.	.	.	16g 16B-/	.	16dd\	.	.	.	.	.	.	.	.
.	.	.	.	.	16g 16B-/	.	16ee-\JJ)	.	.	.	.	.	.	.	.
.	.	.	.	.	16g 16B-/	.	(>16ff\LL	.	.	.	.	.	.	.	.
.	.	.	.	.	16g 16B-/	.	16ee-\	.	.	.	.	.	.	.	.
.	.	.	.	.	16g 16B-/	.	16gg\)	.	.	.	.	.	.	.	.
.	.	.	.	.	16gJJ 16B-/	.	16bb-\JJ	.	.	.	.	.	.	.	.
*	*	*	*	*	*Xtremolo	*	*	*	*	*	*	*	*	*	*
=23	=23	=23	=23	=23	=23	=23	=23	=23	=23	=23	=23	=23	=23	=23	=23
*	*	*	*	*	*tremolo	*	*	*	*	*	*	*	*	*	*
2BB-/	X X 7	.	2f\	.	16a-LL 16B-/	.	4b-\	.	2ryy	2ryy	2ryy	16.dd\LL	.	2ryy	2ryy
.	.	.	.	.	16a- 16B-/	.	.	.	.	.	.	.	.	.	.
.	.	.	.	.	.	.	.	.	.	.	.	32ee-\K	.	.	.
.	.	.	.	.	16a- 16B-/	.	.	.	.	.	.	16.ff\	.	.	.
.	.	.	.	.	16a- 16B-/	.	.	.	.	.	.	.	.	.	.
.	.	.	.	.	.	.	.	.	.	.	.	32gg\JJk	.	.	.
!	!	!	!	!	!	!	!	!	!	!	!	!LO:LB:g=original	!	!	!
.	.	.	.	.	16a- 16B-/	.	4r	.	.	.	.	16.aa-\LL	.	.	.
.	.	.	.	.	16a- 16B-/	.	.	.	.	.	.	.	.	.	.
.	.	.	.	.	.	.	.	.	.	.	.	32ff\JJk	.	.	.
.	.	.	.	.	16a- 16B-/	.	.	.	.	.	.	16.ee-\LL	-la	.	.
.	.	.	.	.	16a-JJ 16B-/	.	.	.	.	.	.	.	.	.	.
.	.	.	.	.	.	.	.	.	.	.	.	32dd\JJk	.	.	.
*	*	*	*	*	*Xtremolo	*	*	*	*	*	*	*	*	*	*
=24	=24	=24	=24	=24	=24	=24	=24	=24	=24	=24	=24	=24	=24	=24	=24
8E-\L	.	.	8e-\L	.	8g 8B-/	.	8ee-\	.	2ryy	2ryy	2ryy	(>8ee-\	no-	2ryy	2ryy
8E-\	.	.	8e-\	.	4g/	.	4b-\	.	.	.	.	4b-\)	.	.	.
8E-\	.	.	8e-\	.	.	.	.	.	.	.	.	.	.	.	.
8E-\J	X 6 4	.	8e-\J	.	8a-/	.	8cc\	.	.	.	.	8cc\	-cits	.	.
=25	=25	=25	=25	=25	=25	=25	=25	=25	=25	=25	=25	=25	=25	=25	=25
.	.	.	.	.	8qqg/	.	8qb-/	.	.	.	.	8qqb-/	.	.	.
8D\L	X 6 5	.	8B-/L	.	8f/L	.	8a-/L	.	2ryy	2ryy	2ryy	8a-\	Stel-	2ryy	2ryy
8E-\J	.	.	8B-/J	.	8e-/J	.	8g/J	.	.	.	.	8g\	-la	.	.
4r	.	.	4r	.	4r	.	4r	.	.	.	.	4r	.	.	.
=26	=26	=26	=26	=26	=26	=26	=26	=26	=26	=26	=26	=26	=26	=26	=26
8r	.	.	8r	.	8r	.	[<4f/	.	2ryy	2ryy	2ryy	4.f/	post	2ryy	2ryy
8A-\L	X X 6	.	8A-/L	.	8c/L	.	.	.	.	.	.	.	.	.	.
!	!	!	!	!	!	!	!LO:TUP:b:kropka zamiast numeru	!	!	!	!	!	!	!	!
8A-\	.	.	8A-/	.	8c/	.	24f/LL]	.	.	.	.	.	.	.	.
.	.	.	.	.	.	.	24cc/	.	.	.	.	.	.	.	.
.	.	.	.	.	.	.	24b-/JJ	.	.	.	.	.	.	.	.
*	*	*	*	*	*	*	*	*	*	*	*	*Xtuplet	*	*	*
!	!	!	!	!	!	!	!	!	!	!	!	!LO:TUP:b:problem:klamra łukowa, kropka zamiast numeru	!	!	!
8A-\J	.	.	8A-/J	.	8c/J	.	24a-/LL	.	.	.	.	24a-/LL	.	.	.
.	.	.	.	.	.	.	24g/	.	.	.	.	24g/	.	.	.
.	.	.	.	.	.	.	24f/JJ	.	.	.	.	24f/JJ	.	.	.
!	!	!	!	!	!	!	!LO:LB:g=original	!	!	!	!	!	!	!	!
=27	=27	=27	=27	=27	=27	=27	=27	=27	=27	=27	=27	=27	=27	=27	=27
8r	.	.	8r	.	8r	.	(<4e-/	.	2ryy	2ryy	2ryy	(<4e-/	sae-	2ryy	2ryy
!LO:TX:t=P:problem:mixed beam	!	!	!	!	!	!	!	!	!	!	!	!	!	!	!
8BB-/L	X X 4	.	8B-/L	.	8B-/L	.	.	.	.	.	.	.	.	.	.
*	*	*	*	*	*	*	*tuplet	*	*	*	*	*	*	*	*
!	!	!	!	!	!	!	!LO:TUP:b	!	!	!	!	!	!	!	!
8B-\	X X 3	.	8B-/	.	8B-/	.	24d/LL)	.	.	.	.	8d/)	.	.	.
.	.	.	.	.	.	.	24c/	.	.	.	.	.	.	.	.
.	.	.	.	.	.	.	24d/	.	.	.	.	.	.	.	.
8A-\J	X X 3	.	8A-/J	.	8B-/J	.	24e-/	.	.	.	.	16e-/LL	-vae	.	.
.	.	.	.	.	.	.	24d/	.	.	.	.	.	.	.	.
.	.	.	.	.	.	.	.	.	.	.	.	16c/JJ	.	.	.
.	.	.	.	.	.	.	24c/JJ	.	.	.	.	.	.	.	.
*	*	*	*	*	*	*	*Xtuplet	*	*	*	*	*	*	*	*
=28	=28	=28	=28	=28	=28	=28	=28	=28	=28	=28	=28	=28	=28	=28	=28
!LO:TX:t=P:problem:mixed beam	!	!	!	!	!	!	!	!	!	!	!	!	!	!	!
8G\L	X X 6	.	8G/L	.	8B-/	.	24B-/LL	.	2ryy	2ryy	2ryy	16B-/LL	u-	2ryy	2ryy
.	.	.	.	.	.	.	24c/	.	.	.	.	.	.	.	.
.	.	.	.	.	.	.	.	.	.	.	.	16e-/JJ	-im	.	.
.	.	.	.	.	.	.	24d/JJ	.	.	.	.	.	.	.	.
8E-\	.	.	8E-/	.	4e-/	.	24e-/LL	.	.	.	.	16g\LL	pro-	.	.
.	.	.	.	.	.	.	24g/	.	.	.	.	.	.	.	.
.	.	.	.	.	.	.	.	.	.	.	.	16cc\JJ	.	.	.
.	.	.	.	.	.	.	24cc/JJ	.	.	.	.	.	.	.	.
.	.	.	.	.	.	.	8qqb-/	.	.	.	.	8qqb-/	.	.	.
8F\	X X 7	.	8F/	.	.	.	4a-/	.	.	.	.	4a-\	-cel-	.	.
8BB-/J	X X 7	.	8B-/J	.	8d/	.	.	.	.	.	.	.	.	.	.
!	!	!	!	!	!LO:LB:g=original	!	!	!	!	!	!	!	!	!	!
=29	=29	=29	=29	=29	=29	=29	=29	=29	=29	=29	=29	=29	=29	=29	=29
!	!	!	!	!	!	!LO:DY:b:t=fo	!	!LO:DY:b:t=for	!	!	!	!	!	!	!
8E-\	.	.	24D/LL	.	24e-/LL	f	8g/	f	2ryy	2ryy	2ryy	4g\	-la	2ryy	2ryy
!	!	!	!	!LO:DY:b:t=for	!	!	!	!	!	!	!	!	!	!	!
.	.	.	24G/	f	24B-/	.	.	.	.	.	.	.	.	.	.
.	.	.	24G/JJ	.	24B-/	.	.	.	.	.	.	.	.	.	.
8r	.	.	24G/LL	.	24B-/	.	8r	.	.	.	.	.	.	.	.
.	.	.	24G/	.	24B-/	.	.	.	.	.	.	.	.	.	.
.	.	.	24G/JJ	.	24B-/JJ	.	.	.	.	.	.	.	.	.	.
8BB-/	.	.	24A-/LL	.	24f/LL	.	8d/	.	.	.	.	4r	.	.	.
.	.	.	24F/	.	24A-/	.	.	.	.	.	.	.	.	.	.
.	.	.	24F/JJ	.	24A-/	.	.	.	.	.	.	.	.	.	.
8r	.	.	24F/LL	.	24A-/	.	8r	.	.	.	.	.	.	.	.
.	.	.	24F/	.	24A-/	.	.	.	.	.	.	.	.	.	.
.	.	.	24F/JJ	.	24A-/JJ	.	.	.	.	.	.	.	.	.	.
!LO:LB:g=original	!	!	!LO:LB:g=original	!	!	!	!	!	!	!	!	!LO:LB:g=original	!	!	!
=30	=30	=30	=30	=30	=30	=30	=30	=30	=30	=30	=30	=30	=30	=30	=30
8E-\L	.	.	8E-/L	.	24G/LL	.	24e-LL 24G/	.	2ryy	2ryy	2ryy	2r	.	2ryy	2ryy
.	.	.	.	.	24e- 24G/	.	24e- 24G/	.	.	.	.	.	.	.	.
.	.	.	.	.	24e- 24G/	.	24e-JJ 24G/	.	.	.	.	.	.	.	.
8E-\	.	.	8B- 8E-/	.	24e- 24G/	.	24e-LL 24G/	.	.	.	.	.	.	.	.
.	.	.	.	.	24e- 24G/	.	24e- 24G/	.	.	.	.	.	.	.	.
.	.	.	.	.	24e-JJ 24G/	.	24e-JJ 24G/	.	.	.	.	.	.	.	.
!	!	!	!	!	!LO:N:vis=4	!	!	!	!	!	!	!	!	!	!
8E-\J	.	.	8B-J 8E-/	.	8e- 8G/	.	4e- 4G/	.	.	.	.	.	.	.	.
8r	.	.	8r	.	8r	.	.	.	.	.	.	.	.	.	.
=31	=31	=31	=31	=31	=31	=31	=31	=31	=31	=31	=31	=31	=31	=31	=31
*tremolo	*	*	*	*	*	*	*	*	*	*	*	*	*	*	*
!	!	!	!	!	!	!LO:DY:rj	!	!	!	!	!	!	!	!	!
!	!	!	!	!LO:DY:b:t=pia	!	!LO:DY:b:t=po	!	!LO:DY:b:t=po	!	!	!	!	!	!	!
8E-\L	.	.	2g 2B-/	p	24e-/LL	p	24e-/LL	p	2ryy	2ryy	2ryy	2e-/	per	2ryy	2ryy
.	.	.	.	.	24B-/	.	24B-/	.	.	.	.	.	.	.	.
.	.	.	.	.	24G/JJ	.	24G/JJ	.	.	.	.	.	.	.	.
8E-\	.	.	.	.	24G/LL	.	24G/LL	.	.	.	.	.	.	.	.
.	.	.	.	.	24G/	.	24G/	.	.	.	.	.	.	.	.
.	.	.	.	.	24G/JJ	.	24G/JJ	.	.	.	.	.	.	.	.
8E-\	.	.	.	.	24g/LL	.	24g/LL	.	.	.	.	.	.	.	.
.	.	.	.	.	24e-/	.	24e-/	.	.	.	.	.	.	.	.
.	.	.	.	.	24e-/	.	24e-/	.	.	.	.	.	.	.	.
8E-\J	.	.	.	.	24e-/	.	24e-/	.	.	.	.	.	.	.	.
.	.	.	.	.	24e-/	.	24e-/	.	.	.	.	.	.	.	.
.	.	.	.	.	24e-/JJ	.	24e-/JJ	.	.	.	.	.	.	.	.
*Xtremolo	*	*	*	*	*	*	*	*	*	*	*	*	*	*	*
!	!	!	!	!	!LO:LB:g=original	!	!LO:LB:g=original	!	!	!	!	!	!	!	!
=32	=32	=32	=32	=32	=32	=32	=32	=32	=32	=32	=32	=32	=32	=32	=32
*tremolo	*	*	*	*	*	*	*	*	*	*	*	*	*	*	*
*	*	*	*	*	*tuplet	*	*	*	*	*	*	*	*	*	*
!	!	!	!	!	!LO:TUP:b	!	!	!	!	!	!	!	!	!	!
8D\L	X X 6	.	2f 2B-/	.	24g/LL	.	24b-/LL	.	2ryy	2ryy	2ryy	4.b-\	cae-	2ryy	2ryy
.	.	.	.	.	24f/	.	24f/	.	.	.	.	.	.	.	.
.	.	.	.	.	24d/	.	24d/JJ	.	.	.	.	.	.	.	.
8D\	.	.	.	.	24B-/	.	24B-/LL	.	.	.	.	.	.	.	.
.	.	.	.	.	24B-/	.	24B-/	.	.	.	.	.	.	.	.
.	.	.	.	.	24B-/JJ	.	24B-/JJ	.	.	.	.	.	.	.	.
8D\	.	.	.	.	24ff\LL	.	24ff\LL	.	.	.	.	.	.	.	.
.	.	.	.	.	24dd\	.	24dd\	.	.	.	.	.	.	.	.
.	.	.	.	.	24b-\	.	24b-\JJ	.	.	.	.	.	.	.	.
8D\J	.	.	.	.	24b-\	.	24b-\LL	.	.	.	.	16cc\LL	-li	.	.
.	.	.	.	.	24b-\	.	24b-\	.	.	.	.	.	.	.	.
.	.	.	.	.	.	.	.	.	.	.	.	16dd\JJ	.	.	.
.	.	.	.	.	24b-\JJ	.	24b-\JJ	.	.	.	.	.	.	.	.
*Xtremolo	*	*	*	*	*	*	*	*	*	*	*	*	*	*	*
=33	=33	=33	=33	=33	=33	=33	=33	=33	=33	=33	=33	=33	=33	=33	=33
*tremolo	*	*	*	*	*	*	*	*	*	*	*	*	*	*	*
*	*	*	*	*	*	*	*tuplet	*	*	*	*	*	*	*	*
!	!	!	!	!	!	!	!LO:TUP:b	!	!	!	!	!	!	!	!
!	!	!	!	!	!LO:TX:t=P:problem:mixed beam	!	!LO:TX:t=P:problem:mixed beam	!	!	!	!	!	!	!	!
8C/L	X X 5	.	2e- 2G/	.	24ee-\LL	.	24ee-\LL	.	2ryy	2ryy	2ryy	16.ee-\LL	ful-	2ryy	2ryy
.	.	.	.	.	24e-/	.	24e-/	.	.	.	.	.	.	.	.
.	.	.	.	.	24e-/	.	24e-/	.	.	.	.	.	.	.	.
.	.	.	.	.	.	.	.	.	.	.	.	32dd\JJk	.	.	.
8C/	.	.	.	.	24e-/	.	24e-/	.	.	.	.	4.ee-\	-gent	.	.
.	.	.	.	.	24e-/	.	24e-/	.	.	.	.	.	.	.	.
.	.	.	.	.	24e-/JJ	.	24e-/JJ	.	.	.	.	.	.	.	.
!	!	!	!	!	!LO:TX:t=P:problem:mixed beam	!	!LO:TX:t=P:problem:mixed beam	!	!	!	!	!	!	!	!
8C/	.	.	.	.	24e-/LL	.	24e-/LL	.	.	.	.	.	.	.	.
.	.	.	.	.	24ee-\	.	24ee-\	.	.	.	.	.	.	.	.
.	.	.	.	.	24ee-\	.	24ee-\	.	.	.	.	.	.	.	.
8C/J	.	.	.	.	24ee-\	.	24ee-\	.	.	.	.	.	.	.	.
.	.	.	.	.	24ee-\	.	24ee-\	.	.	.	.	.	.	.	.
.	.	.	.	.	24ee-\JJ	.	24ee-\JJ	.	.	.	.	.	.	.	.
*Xtremolo	*	*	*	*	*	*	*	*	*	*	*	*	*	*	*
=34	=34	=34	=34	=34	=34	=34	=34	=34	=34	=34	=34	=34	=34	=34	=34
*tremolo	*	*	*	*	*	*	*	*	*	*	*	*	*	*	*
*	*	*	*	*	*Xtuplet	*	*Xtuplet	*	*	*	*	*	*	*	*
!	!	!	!	!	!LO:TUP:a:problem:klamra łukowa	!	!	!	!	!	!	!	!	!	!
8F\L	X 7 4/	.	2f 2An/	.	24cc\LL	.	(>24ee-\LL	.	2ryy	2ryy	2ryy	(>16ee-\LL	ful-	2ryy	2ryy
.	.	.	.	.	24dd\	.	24ff\)	.	.	.	.	.	.	.	.
.	.	.	.	.	.	.	.	.	.	.	.	16dd\JJ)	.	.	.
.	.	.	.	.	24b-\JJ	.	24dd\JJ|	.	.	.	.	.	.	.	.
!	!	!	!	!	!LO:TUP:b:problem:klamra łukowa	!	!	!	!	!	!	!	!	!	!
8F\	.	.	.	.	24an/LL	.	(>24cc\LL	.	.	.	.	(>16cc\LL	-gent	.	.
.	.	.	.	.	24b-/	.	24dd\)	.	.	.	.	.	.	.	.
.	.	.	.	.	.	.	.	.	.	.	.	16b-\JJ)	.	.	.
.	.	.	.	.	24g/JJ	.	24b-\JJ|	.	.	.	.	.	.	.	.
!	!	!	!	!	!LO:TX:t=P:problem:mixed beam	!	!	!	!	!	!	!	!	!	!
!	!	!	!	!	!LO:TUP:a:problem:klamra łukowa	!	!	!	!	!	!	!	!	!	!
8F\	.	.	.	.	24f/LL	.	(>24an\LL	.	.	.	.	16an\LL	a-	.	.
.	.	.	.	.	24ee-\	.	24gg\)	.	.	.	.	.	.	.	.
.	.	.	.	.	.	.	.	.	.	.	.	16gg\JJ	.	.	.
.	.	.	.	.	24ee-\JJ	.	24ff\JJ|	.	.	.	.	.	.	.	.
!	!	!	!	!	!LO:TUP:a:problem:klamra łukowa	!	!	!	!	!	!	!	!	!	!
8F\J	.	.	.	.	24ee-\LL	.	(>24gg\LL	.	.	.	.	16ff\LL	-tri-	.	.
.	.	.	.	.	24dd\	.	24ff\)	.	.	.	.	.	.	.	.
.	.	.	.	.	.	.	.	.	.	.	.	16ee-\JJ	.	.	.
!	!	!	!	!	!LO:TX:a:t=P:problem:błąd renderowania - niepoprawne wyświetlanie tej wartości	!	!LO:TX:a:t=P:problem:błąd renderowania - niepoprawne wyświetlanie tej wartości	!	!	!	!	!	!	!	!
.	.	.	.	.	24cc\JJ	.	24ee-\JJ	.	.	.	.	.	.	.	.
!	!	!	!	!	!LO:LB:g=original	!	!	!	!	!	!	!	!	!	!
*Xtremolo	*	*	*	*	*	*	*	*	*	*	*	*	*	*	*
=35	=35	=35	=35	=35	=35	=35	=35	=35	=35	=35	=35	=35	=35	=35	=35
*	*	*	*	*	*	*	*tuplet	*	*	*	*	*	*	*	*
.	.	.	.	.	.	.	.	.	.	.	.	8qqee-/	.	.	.
8BB-/L	.	.	8fL 8B-/	.	24b-\LL	.	24dd\LL|	.	2ryy	2ryy	2ryy	4dd\	-a	2ryy	2ryy
.	.	.	.	.	24b-\	.	24b-\	.	.	.	.	.	.	.	.
.	.	.	.	.	24dd\JJ	.	24dd\	.	.	.	.	.	.	.	.
8BB-/	.	.	8B-/	.	24ff\LL	.	24ff\	.	.	.	.	.	.	.	.
.	.	.	.	.	24dd\	.	24dd\	.	.	.	.	.	.	.	.
.	.	.	.	.	24ff\JJ	.	24ff\JJ	.	.	.	.	.	.	.	.
!	!	!	!	!	!LO:TX:t=P:problem:mixed beam	!	!	!	!	!	!	!	!	!	!
!	!	!	!	!	!	!	!LO:LB:g=original	!	!	!	!	!	!	!	!
8D/	X X 6	.	8d/	.	8bb-\L	.	24bb-\LL	.	.	.	.	8r	.	.	.
.	.	.	.	.	.	.	24ff\	.	.	.	.	.	.	.	.
.	.	.	.	.	.	.	24ff\	.	.	.	.	.	.	.	.
8D/J	.	.	8d/J	.	8b-/J	.	24ff\	.	.	.	.	8ff\	post	.	.
.	.	.	.	.	.	.	24ff\	.	.	.	.	.	.	.	.
.	.	.	.	.	.	.	24ff\JJ	.	.	.	.	.	.	.	.
=36	=36	=36	=36	=36	=36	=36	=36	=36	=36	=36	=36	=36	=36	=36	=36
*	*	*	*	*	*	*	*Xtuplet	*	*	*	*	*	*	*	*
8G\L	X X 6	.	8g\L	.	8b-/L	.	(>24ff\LL	.	2ryy	2ryy	2ryy	16ff\LL	Sae-	2ryy	2ryy
.	.	.	.	.	.	.	24ee-\)	.	.	.	.	.	.	.	.
.	.	.	.	.	.	.	.	.	.	.	.	16ee-\JJ	.	.	.
.	.	.	.	.	.	.	24ee-\JJ|	.	.	.	.	.	.	.	.
8F\	X X 6	.	8f\	.	8an/	.	(>24ee-\LL	.	.	.	.	16ee-\LL	-vae	.	.
.	.	.	.	.	.	.	24dd\)	.	.	.	.	.	.	.	.
.	.	.	.	.	.	.	.	.	.	.	.	16dd\JJ	.	.	.
.	.	.	.	.	.	.	24dd\JJ|	.	.	.	.	.	.	.	.
8E-\	X X 6	.	8e-\	.	8g/	.	(>24dd\LL	.	.	.	.	16dd\LL	vim	.	.
.	.	.	.	.	.	.	24cc\)	.	.	.	.	.	.	.	.
.	.	.	.	.	.	.	.	.	.	.	.	16cc\JJ	.	.	.
.	.	.	.	.	.	.	24cc\JJ|	.	.	.	.	.	.	.	.
8En\J	X X 5	.	8en\J	.	8g/J	.	(>24cc\LL	.	.	.	.	16cc\LL	pro-	.	.
.	.	.	.	.	.	.	24b-\)	.	.	.	.	.	.	.	.
.	.	.	.	.	.	.	.	.	.	.	.	16b-\JJ	.	.	.
.	.	.	.	.	.	.	24b-\JJ|	.	.	.	.	.	.	.	.
!	!	!	!	!	!	!	!	!	!	!	!	!LO:LB:g=original	!	!	!
=37	=37	=37	=37	=37	=37	=37	=37	=37	=37	=37	=37	=37	=37	=37	=37
.	.	.	.	.	.	.	8qqb-/	.	.	.	.	.	.	.	.
8F\L	X X 4/	.	4f\	.	4c/	.	4an/	.	2ryy	2ryy	2ryy	16.an\LL	-cel-	2ryy	2ryy
.	.	.	.	.	.	.	.	.	.	.	.	32b-\K	.	.	.
8F\	.	.	.	.	.	.	.	.	.	.	.	16.cc\	.	.	.
.	.	.	.	.	.	.	.	.	.	.	.	32dd\JJk	.	.	.
*	*	*	*	*	*tuplet	*	*	*	*	*	*	*	*	*	*
!	!	!	!	!	!LO:TX:a:t=P:problem:w źródle brak klamry kwadratowej	!	!	!	!	!	!	!	!	!	!
!	!	!	!	!	!LO:TUP:b	!	!	!	!	!	!	!	!	!	!
8F\	.	.	4f\	.	24r	.	24r	.	.	.	.	8cc\	.	.	.
.	.	.	.	.	24an/LL	.	24ee-'\LL	.	.	.	.	.	.	.	.
.	.	.	.	.	24a/	.	24ee-'\	.	.	.	.	.	.	.	.
8F\J	.	.	.	.	24a/	.	(>24ee-\	.	.	.	.	8r	.	.	.
.	.	.	.	.	24f/	.	24cc\)	.	.	.	.	.	.	.	.
.	.	.	.	.	24g/JJ	.	24dd\JJ|	.	.	.	.	.	.	.	.
*	*	*	*	*	*Xtuplet	*	*	*	*	*	*	*	*	*	*
=38	=38	=38	=38	=38	=38	=38	=38	=38	=38	=38	=38	=38	=38	=38	=38
*tremolo	*	*	*	*	*	*	*	*	*	*	*	*	*	*	*
*	*	*	*^	*	*	*	*	*	*	*	*	*	*	*	*
!	!	!	!	!	!	!	!	!	!	!	!	!	!LO:TUP:a:problem:klamra łukowa, kropka zamiast numeru	!	!	!
8F\L	X X 7	.	2e-/	2c\	.	4a-/	.	4cc\	.	2ryy	2ryy	2ryy	24ee-\LL	.	2ryy	2ryy
.	.	.	.	.	.	.	.	.	.	.	.	.	24dd\	.	.	.
.	.	.	.	.	.	.	.	.	.	.	.	.	24cc\JJ	.	.	.
!	!	!	!	!	!	!	!	!	!	!	!	!	!LO:TUP:a:problem:klamra łukowa, kropka zamiast numeru	!	!	!
8F\	.	.	.	.	.	.	.	.	.	.	.	.	24b-\LL	.	.	.
.	.	.	.	.	.	.	.	.	.	.	.	.	24an\	.	.	.
.	.	.	.	.	.	.	.	.	.	.	.	.	24g\JJ	.	.	.
!	!	!	!	!	!	!	!	!	!	!	!	!	!LO:TUP:a:problem:klamra łukowa, kropka zamiast numeru	!	!	!
8F\	.	.	.	.	.	8r	.	8r	.	.	.	.	24f\LL	.	.	.
.	.	.	.	.	.	.	.	.	.	.	.	.	24a\	.	.	.
.	.	.	.	.	.	.	.	.	.	.	.	.	24cc\JJ	.	.	.
!	!	!	!	!	!	!	!	!	!	!	!	!	!LO:TUP:a:problem:klamra łukowa, kropka zamiast numeru	!	!	!
8F\J	.	.	.	.	.	8a-/	.	8cc\	.	.	.	.	24ee-\LL	.	.	.
.	.	.	.	.	.	.	.	.	.	.	.	.	24dd\	.	.	.
.	.	.	.	.	.	.	.	.	.	.	.	.	24cc\JJ	.	.	.
*	*	*	*v	*v	*	*	*	*	*	*	*	*	*	*	*	*
*Xtremolo	*	*	*	*	*	*	*	*	*	*	*	*	*	*	*
=39	=39	=39	=39	=39	=39	=39	=39	=39	=39	=39	=39	=39	=39	=39	=39
*tremolo	*	*	*	*	*	*	*	*	*	*	*	*	*	*	*
*	*	*	*^	*	*	*	*	*	*	*	*	*	*	*	*
8F\L	X 6_ 4_	.	2d/	2B-\	.	4b-\	.	4dd\	.	2ryy	2ryy	2ryy	16.b-\LL	.	2ryy	2ryy
.	.	.	.	.	.	.	.	.	.	.	.	.	32cc\K	.	.	.
8F\	.	.	.	.	.	.	.	.	.	.	.	.	16.dd\	.	.	.
.	.	.	.	.	.	.	.	.	.	.	.	.	32ee-\JJk	.	.	.
8F\	.	.	.	.	.	24r	.	24r	.	.	.	.	8dd\	.	.	.
!	!	!	!	!	!	!LO:TX:t=P:problem:mixed beam	!	!	!	!	!	!	!	!	!	!
.	.	.	.	.	.	24b-\LL	.	24dd'\LL	.	.	.	.	.	.	.	.
.	.	.	.	.	.	24b-\	.	24dd'\	.	.	.	.	.	.	.	.
8F\J	.	.	.	.	.	24b-\	.	(>24dd\	.	.	.	.	8r	.	.	.
.	.	.	.	.	.	(>24d/	.	24b-\)	.	.	.	.	.	.	.	.
.	.	.	.	.	.	24f/JJ)	.	24cc\JJ|	.	.	.	.	.	.	.	.
!	!	!	!	!	!	!LO:LB:g=original	!	!LO:LB:g=original	!	!	!	!	!	!	!	!
*	*	*	*v	*v	*	*	*	*	*	*	*	*	*	*	*	*
*Xtremolo	*	*	*	*	*	*	*	*	*	*	*	*	*	*	*
=40	=40	=40	=40	=40	=40	=40	=40	=40	=40	=40	=40	=40	=40	=40	=40
*tremolo	*	*	*	*	*	*	*	*	*	*	*	*	*	*	*
*	*	*	*^	*	*	*	*	*	*	*	*	*	*	*	*
8F\L	.	.	2d/	2B-\	.	4b-\	.	4dd\	.	2ryy	2ryy	2ryy	24b-\LL	.	2ryy	2ryy
.	.	.	.	.	.	.	.	.	.	.	.	.	24f\	.	.	.
.	.	.	.	.	.	.	.	.	.	.	.	.	24b-\JJ	.	.	.
8F\	.	.	.	.	.	.	.	.	.	.	.	.	24dd\LL	.	.	.
.	.	.	.	.	.	.	.	.	.	.	.	.	24b-\	.	.	.
.	.	.	.	.	.	.	.	.	.	.	.	.	24dd\JJ	.	.	.
8F\	.	.	.	.	.	8r	.	8r	.	.	.	.	24ff\LL	.	.	.
.	.	.	.	.	.	.	.	.	.	.	.	.	24dd\	.	.	.
.	.	.	.	.	.	.	.	.	.	.	.	.	24ee-\JJ	.	.	.
8F\J	.	.	.	.	.	8b-\	.	8dd\	.	.	.	.	24ff\LL	.	.	.
.	.	.	.	.	.	.	.	.	.	.	.	.	24dd\	.	.	.
.	.	.	.	.	.	.	.	.	.	.	.	.	24b-\JJ	.	.	.
*	*	*	*v	*v	*	*	*	*	*	*	*	*	*	*	*	*
*Xtremolo	*	*	*	*	*	*	*	*	*	*	*	*	*	*	*
=41	=41	=41	=41	=41	=41	=41	=41	=41	=41	=41	=41	=41	=41	=41	=41
*tremolo	*	*	*	*	*	*	*	*	*	*	*	*	*	*	*
8F\L	X 7 4/	.	2An/	.	4cc\	.	4ee-\	.	2ryy	2ryy	2ryy	16.cc\LL	.	2ryy	2ryy
.	.	.	.	.	.	.	.	.	.	.	.	32dd\K	.	.	.
8F\	.	.	.	.	.	.	.	.	.	.	.	16.ee-\	.	.	.
.	.	.	.	.	.	.	.	.	.	.	.	32ff\JJk	.	.	.
*	*	*	*	*	*tuplet	*	*	*	*	*	*	*	*	*	*
!	!	!	!	!	!LO:TX:a:t=P:problem:w źródle brak klamry kwadratowej	!	!	!	!	!	!	!	!	!	!
8F\	.	.	.	.	24r	.	24r	.	.	.	.	8ee-\	.	.	.
.	.	.	.	.	24cc\LL	.	24ee-'\LL	.	.	.	.	.	.	.	.
.	.	.	.	.	24cc\	.	24ee-'\	.	.	.	.	.	.	.	.
8F\J	.	.	.	.	24cc\	.	(>24ee-\	.	.	.	.	8r	.	.	.
.	.	.	.	.	24an\	.	24cc\)	.	.	.	.	.	.	.	.
.	.	.	.	.	24b-\JJ	.	24dd\JJ|	.	.	.	.	.	.	.	.
!	!	!	!	!	!	!	!	!	!	!	!	!LO:LB:g=original	!	!	!
!LO:LB:g=original	!	!	!	!	!	!	!	!	!	!	!	!	!	!	!
*Xtremolo	*	*	*	*	*	*	*	*	*	*	*	*	*	*	*
=42	=42	=42	=42	=42	=42	=42	=42	=42	=42	=42	=42	=42	=42	=42	=42
!	!	!	!LO:TX:t=P:problem:mixed beam	!	!	!	!	!	!	!	!	!	!	!	!
4F\	X X 7	.	8B-/L	.	4cc\	.	4ee-\	.	2ryy	2ryy	2ryy	24ee-\LL	.	2ryy	2ryy
.	.	.	.	.	.	.	.	.	.	.	.	24dd\	.	.	.
.	.	.	.	.	.	.	.	.	.	.	.	24cc\JJ	.	.	.
.	.	.	8f\	.	.	.	.	.	.	.	.	24b-\LL	.	.	.
.	.	.	.	.	.	.	.	.	.	.	.	24an\	.	.	.
.	.	.	.	.	.	.	.	.	.	.	.	24g\JJ	.	.	.
8r	.	.	8B-/J	.	8r	.	8r	.	.	.	.	24f\LL	.	.	.
.	.	.	.	.	.	.	.	.	.	.	.	24a\	.	.	.
.	.	.	.	.	.	.	.	.	.	.	.	24cc\JJ	.	.	.
8F\	.	.	8r	.	8ee- 8f/	.	8aan 8cc 8f/	.	.	.	.	24ee-\LL	.	.	.
.	.	.	.	.	.	.	.	.	.	.	.	24dd\	.	.	.
.	.	.	.	.	.	.	.	.	.	.	.	24cc\JJ	.	.	.
!	!	!	!LO:LB:g=original	!	!	!	!	!	!	!	!	!	!	!	!
=43	=43	=43	=43	=43	=43	=43	=43	=43	=43	=43	=43	=43	=43	=43	=43
4BB-/	.	.	8r	.	4dd 4f/	.	4bb- 4dd 4f/	.	2ryy	2ryy	2ryy	24dd\LL	.	2ryy	2ryy
.	.	.	.	.	.	.	.	.	.	.	.	24ff\	.	.	.
.	.	.	.	.	.	.	.	.	.	.	.	24bb-\JJ	.	.	.
!	!	!	!LO:TX:t=P:problem:mixed beam	!	!	!	!	!	!	!	!	!	!	!	!
.	.	.	8f\L	.	.	.	.	.	.	.	.	24bb-\LL	.	.	.
.	.	.	.	.	.	.	.	.	.	.	.	24aan\	.	.	.
.	.	.	.	.	.	.	.	.	.	.	.	24gg\JJ	.	.	.
8r	.	.	8B-/J	.	8r	.	8r	.	.	.	.	24ff\LL	.	.	.
.	.	.	.	.	.	.	.	.	.	.	.	24ee-\	.	.	.
.	.	.	.	.	.	.	.	.	.	.	.	24dd\JJ	.	.	.
8F\	X 7 4/	.	8r	.	8ee- 8f/	.	8aan 8dd 8f/	.	.	.	.	24gg\LL	.	.	.
.	.	.	.	.	.	.	.	.	.	.	.	24ff\	.	.	.
.	.	.	.	.	.	.	.	.	.	.	.	24ee-\JJ	.	.	.
=44	=44	=44	=44	=44	=44	=44	=44	=44	=44	=44	=44	=44	=44	=44	=44
4BB-/	.	.	8r	.	4dd 4f/	.	4bb- 4dd 4f/	.	2ryy	2ryy	2ryy	24dd\LL	.	2ryy	2ryy
.	.	.	.	.	.	.	.	.	.	.	.	24ff\	.	.	.
.	.	.	.	.	.	.	.	.	.	.	.	24bb-\JJ	.	.	.
!	!	!	!LO:TX:t=P:problem:mixed beam	!	!	!	!	!	!	!	!	!	!	!	!
.	.	.	8f\L	.	.	.	.	.	.	.	.	24aan\LL	.	.	.
.	.	.	.	.	.	.	.	.	.	.	.	24gg\	.	.	.
.	.	.	.	.	.	.	.	.	.	.	.	24ff\JJ	.	.	.
8r	.	.	8B-/J	.	8r	.	8r	.	.	.	.	24ee-\LL	.	.	.
.	.	.	.	.	.	.	.	.	.	.	.	24dd\	.	.	.
.	.	.	.	.	.	.	.	.	.	.	.	24cc\JJ	.	.	.
8F\	X X 7	.	8r	.	8ee- 8f/	.	8aan 8cc 8f/	.	.	.	.	24gg\LL	.	.	.
.	.	.	.	.	.	.	.	.	.	.	.	24ff\	.	.	.
.	.	.	.	.	.	.	.	.	.	.	.	24ee-\JJ	.	.	.
=45	=45	=45	=45	=45	=45	=45	=45	=45	=45	=45	=45	=45	=45	=45	=45
4BB-/	.	.	8r	.	8dd 8f/	.	8bb- 8dd 8f/	.	2ryy	2ryy	2ryy	8dd\	-la	2ryy	2ryy
.	.	.	8B-/L	.	8r	.	4ff\	.	.	.	.	8ff\	ful-	.	.
4D\	X X 6	.	8d/	.	4b-\	.	.	.	.	.	.	8ff\	-gent	.	.
.	.	.	8d/J	.	.	.	8ff#X\	.	.	.	.	8ff#X\	per	.	.
!	!	!	!	!	!	!	!	!	!	!	!	!LO:LB:g=original	!	!	!
=46	=46	=46	=46	=46	=46	=46	=46	=46	=46	=46	=46	=46	=46	=46	=46
*tremolo	*	*	*tremolo	*	*	*	*	*	*	*	*	*	*	*	*
8E-\L	X X 6	.	8e-\L	.	8b-\L	.	(>4gg\	.	2ryy	2ryy	2ryy	16.gg\LL	coe-	2ryy	2ryy
.	.	.	.	.	.	.	.	.	.	.	.	32ff#X\K	.	.	.
8E-\	.	.	8e-\	.	8b-\J	.	.	.	.	.	.	16gg\	.	.	.
.	.	.	.	.	.	.	.	.	.	.	.	16ff#\JJ	.	.	.
8E-\	.	.	8e-\	.	16e-/LL	.	16gg\LL	.	.	.	.	16gg\LL	.	.	.
.	.	.	.	.	16g/	.	16ee-\	.	.	.	.	16ee-\JJ	.	.	.
8E-\J	.	.	8e-\J	.	16f/	.	16dd\	.	.	.	.	16dd\LL	-li	.	.
.	.	.	.	.	16e-/JJ	.	16cc\JJ)	.	.	.	.	16cc\JJ	.	.	.
*Xtremolo	*	*	*Xtremolo	*	*	*	*	*	*	*	*	*	*	*	*
*	*	*	*	*	*Xtuplet	*	*	*	*	*	*	*	*	*	*
!	!	!	!	!	!LO:LB:g=original	!	!LO:LB:g=original	!	!	!	!	!	!	!	!
=47	=47	=47	=47	=47	=47	=47	=47	=47	=47	=47	=47	=47	=47	=47	=47
!LO:TX:t=P:problem:mixed beam	!	!	!LO:TX:t=P:problem:mixed beam	!	!	!	!	!	!	!	!	!	!	!	!
8F\L	X 6 4	.	8f\L	.	24d/LL	.	24dd\LL	.	2ryy	2ryy	2ryy	4b-\	a-	2ryy	2ryy
.	.	.	.	.	24f/	.	24bb- 24dd\	.	.	.	.	.	.	.	.
!	!	!	!	!	!	!	!	!LO:HP:b	!	!	!	!	!	!	!
.	.	.	.	.	24f/	.	24bb- 24dd\	<	.	.	.	.	.	.	.
8F\	.	.	8f\	.	24f/	.	24bb- 24dd\	.	.	.	.	.	.	.	.
.	.	.	.	.	24f/	.	24bb- 24dd\	.	.	.	.	.	.	.	.
.	.	.	.	.	24f/JJ	.	24bb-JJ 24dd\	.	.	.	.	.	.	.	.
8FF/	X X 4/	.	8F/	.	24f/LL	.	24aanLL 24cc\	.	.	.	.	8.ccT\	.	.	.
.	.	.	.	.	24an/	.	24aa 24cc\	.	.	.	.	.	.	.	.
.	.	.	.	.	24cc/JJ	.	24aa 24cc\	.	.	.	.	.	.	.	.
8FF/J	.	.	8F/J	.	24ee-\LL	.	24aa 24cc\	.	.	.	.	.	.	.	.
.	.	.	.	.	24ee-\	.	24aa 24cc\	.	.	.	.	.	.	.	.
.	.	.	.	.	.	.	.	.	.	.	.	16cc\	-tri-	.	.
.	.	.	.	.	24ee-\JJ	.	24aaJJ 24cc\	.	.	.	.	.	.	.	.
=48	=48	=48	=48	=48	=48	=48	=48	=48	=48	=48	=48	=48	=48	=48	=48
!LO:TX:t=P:problem:mixed beam	!	!	!LO:TX:t=P:problem:mixed beam	!	!	!	!	!	!	!	!	!	!	!	!
!	!	!LO:DY:b:t=for	!	!LO:DY:b:t=for	!	!LO:DY:b:t=for	!	!LO:DY:b:t=for	!	!	!	!	!	!	!
24BB-'/LL	.	f	24B-\LL	f	24dd\LL	f	24bb-LL 24dd\	f	2ryy	2ryy	2ryy	4b-\	-a	2ryy	2ryy
24B-'\	.	.	24b-\	.	24b-\	.	24b-\	.	.	.	.	.	.	.	.
24B-'\JJ	.	.	24b-\JJ	.	24b-\JJ	.	24b-\JJ	.	.	.	.	.	.	.	.
24B-'\LL	.	.	24b-\LL	.	24b-\LL	.	24b-\LL	.	.	.	.	.	.	.	.
24d'\	.	.	24dd\	.	24dd\	.	24dd\	.	.	.	.	.	.	.	.
24B-'\JJ	.	.	24b-\JJ	.	24b-\JJ	.	24b-\JJ	.	.	.	.	.	.	.	.
24G'\LL	.	.	24g\LL	.	24g/LL	.	24g/LL	.	.	.	.	4r	.	.	.
24B-'\	.	.	24b-\	.	24b-/	.	24b-/	.	.	.	.	.	.	.	.
24G'\JJ	.	.	24g\JJ	.	24g/JJ	.	24g/JJ	.	.	.	.	.	.	.	.
24En'\LL	.	.	24en\LL	.	24en/LL	.	24en/LL	.	.	.	.	.	.	.	.
24G'\	.	.	24g\	.	24g/	.	24g/	.	.	.	.	.	.	.	.
24E'\JJ	.	.	24e\JJ	.	24e/JJ	.	24e/JJ	.	.	.	.	.	.	.	.
=49	=49	=49	=49	=49	=49	=49	=49	=49	=49	=49	=49	=49	=49	=49	=49
*	*	*	*^	*	*	*	*	*	*	*	*	*	*	*	*
!	!	!	!	!	!LO:DY:b:t=pia	!	!	!	!	!	!	!	!	!	!	!
8F\L	X X 4/	.	4f\	4ryy	p	8f/L	.	4f/	.	2ryy	2ryy	2ryy	8r	.	2ryy	2ryy
!	!	!	!	!	!	!	!LO:DY:b:t=p&colon;	!	!	!	!	!	!	!	!	!
8F\	.	.	.	.	.	16.an/L	p	.	.	.	.	.	16.an\LL	ut	.	.
.	.	.	.	.	.	32b-/JJk	.	.	.	.	.	.	32b-\JJk	.	.	.
!	!	!	!	!	!	!LO:TX:t=P:problem:mixed beam	!	!	!	!	!	!	!	!	!	!
8F\	.	.	4e-X/	4c\	.	32cc\KLL	.	4r	.	.	.	.	16.cc\LL	noc-	.	.
.	.	.	.	.	.	16.dd\	.	.	.	.	.	.	.	.	.	.
.	.	.	.	.	.	.	.	.	.	.	.	.	32dd\K	.	.	.
8F\J	.	.	.	.	.	16.ee-\	.	.	.	.	.	.	16.ee-\JJ	.	.	.
.	.	.	.	.	.	32an/JJk	.	.	.	.	.	.	32an\	-tis	.	.
!	!	!	!	!	!	!LO:TX:a:t=P:problem:	!	!	!	!	!	!	!	!	!	!
*	*	*	*v	*v	*	*	*	*	*	*	*	*	*	*	*	*
=50	=50	=50	=50	=50	=50	=50	=50	=50	=50	=50	=50	=50	=50	=50	=50
*tremolo	*	*	*	*	*	*	*	*	*	*	*	*	*	*	*
*	*	*	*^	*	*	*	*	*	*	*	*	*	*	*	*
!	!	!	!	!	!	!	!	!	!LO:DY:b:t=po	!	!	!	!	!	!	!
8F\L	X 6 4	.	2d/	2B-\	.	8b-/L	.	8r	p	2ryy	2ryy	2ryy	8b-\	Stel-	2ryy	2ryy
8F\	.	.	.	.	.	8f/J	.	16.b-\LL	.	.	.	.	8f/	-la	.	.
.	.	.	.	.	.	.	.	32cc\JJk	.	.	.	.	.	.	.	.
8F\	.	.	.	.	.	4r	.	16.dd\LL	.	.	.	.	4r	.	.	.
.	.	.	.	.	.	.	.	32ee-\K	.	.	.	.	.	.	.	.
8F\J	.	.	.	.	.	.	.	16.ff\	.	.	.	.	.	.	.	.
.	.	.	.	.	.	.	.	32b-\JJk	.	.	.	.	.	.	.	.
*	*	*	*v	*v	*	*	*	*	*	*	*	*	*	*	*	*
*Xtremolo	*	*	*	*	*	*	*	*	*	*	*	*	*	*	*
!LO:LB:g=original	!	!	!	!	!	!	!	!	!	!	!	!	!	!	!
=51	=51	=51	=51	=51	=51	=51	=51	=51	=51	=51	=51	=51	=51	=51	=51
*tremolo	*	*	*	*	*	*	*	*	*	*	*	*	*	*	*
*	*	*	*^	*	*	*	*	*	*	*	*	*	*	*	*
8F\L	X X 4/	.	2e-/	2c\	.	8r	.	8an/L	.	2ryy	2ryy	2ryy	8r	.	2ryy	2ryy
8F\	.	.	.	.	.	16.an/LL	.	8f/J	.	.	.	.	16.an\LL	post	.	.
.	.	.	.	.	.	32b-/JJk	.	.	.	.	.	.	32b-\JJk	.	.	.
!	!	!	!	!	!	!LO:TX:t=P:problem:mixed beam	!	!	!	!	!	!	!	!	!	!
8F\	.	.	.	.	.	16.cc\LL	.	4r	.	.	.	.	16.cc\LL	vim	.	.
.	.	.	.	.	.	32dd\K	.	.	.	.	.	.	32dd\K	.	.	.
8F\J	.	.	.	.	.	16ee-\	.	.	.	.	.	.	16.ee-\JJ	.	.	.
.	.	.	.	.	.	16a/JJ	.	.	.	.	.	.	.	.	.	.
.	.	.	.	.	.	.	.	.	.	.	.	.	32an\	pro-	.	.
!	!	!	!	!	!	!	!	!LO:LB:g=original	!	!	!	!	!	!	!	!
*	*	*	*v	*v	*	*	*	*	*	*	*	*	*	*	*	*
*Xtremolo	*	*	*	*	*	*	*	*	*	*	*	*	*	*	*
=52	=52	=52	=52	=52	=52	=52	=52	=52	=52	=52	=52	=52	=52	=52	=52
*tremolo	*	*	*	*	*	*	*	*	*	*	*	*	*	*	*
*	*	*	*^	*	*	*	*	*	*	*	*	*	*	*	*
8F\L	X 6 4	.	2d/	2B-\	.	8b-/L	.	8r	.	2ryy	2ryy	2ryy	8b-\	-cel-	2ryy	2ryy
8F\	.	.	.	.	.	8f/J	.	16.b-\LL	.	.	.	.	8f/	-la	.	.
.	.	.	.	.	.	.	.	32cc\JJk	.	.	.	.	.	.	.	.
8F\	.	.	.	.	.	4r	.	16.dd\LL	.	.	.	.	4r	.	.	.
.	.	.	.	.	.	.	.	32ee-\K	.	.	.	.	.	.	.	.
8F\J	.	.	.	.	.	.	.	16.ff\	.	.	.	.	.	.	.	.
.	.	.	.	.	.	.	.	32b-\JJk	.	.	.	.	.	.	.	.
!	!	!	!	!	!	!	!	!	!	!	!	!	!LO:LB:g=original	!	!	!
*	*	*	*v	*v	*	*	*	*	*	*	*	*	*	*	*	*
*Xtremolo	*	*	*	*	*	*	*	*	*	*	*	*	*	*	*
=53	=53	=53	=53	=53	=53	=53	=53	=53	=53	=53	=53	=53	=53	=53	=53
*tremolo	*	*	*	*	*	*	*	*	*	*	*	*	*	*	*
*	*	*	*^	*	*	*	*	*	*	*	*	*	*	*	*
8F\L	X 7 4/	.	2f/	2c\	.	8r	.	8an\L	.	2ryy	2ryy	2ryy	8r	.	2ryy	2ryy
8F\	.	.	.	.	.	16.an/LL	.	16.cc\L	.	.	.	.	16.cc\LL	ful-	.	.
.	.	.	.	.	.	32b-/JJk	.	32dd\JJk	.	.	.	.	32dd\JJk	.	.	.
8F\	.	.	.	.	.	16.cc\LL	.	16.ee-\LL	.	.	.	.	16.ee-\LL	-gent	.	.
.	.	.	.	.	.	32dd\K	.	32ff\K	.	.	.	.	32ff\K	.	.	.
8F\J	.	.	.	.	.	16.ee-\	.	16.gg\	.	.	.	.	16.gg\JJ	.	.	.
.	.	.	.	.	.	32cc\JJk	.	32ee-\JJk	.	.	.	.	32ee-\	per	.	.
*	*	*	*v	*v	*	*	*	*	*	*	*	*	*	*	*	*
*Xtremolo	*	*	*	*	*	*	*	*	*	*	*	*	*	*	*
=54	=54	=54	=54	=54	=54	=54	=54	=54	=54	=54	=54	=54	=54	=54	=54
4B-\	.	.	4f\	.	8b-\	.	24dd\LL	.	2ryy	2ryy	2ryy	24dd\LL	coe-	2ryy	2ryy
.	.	.	.	.	.	.	24cc\	.	.	.	.	24cc\	.	.	.
.	.	.	.	.	.	.	24b-\JJ	.	.	.	.	24b-\JJ	.	.	.
.	.	.	.	.	8r	.	24an/LL	.	.	.	.	24an\LL	.	.	.
.	.	.	.	.	.	.	24b-/	.	.	.	.	24b-\	.	.	.
.	.	.	.	.	.	.	24cc/JJ	.	.	.	.	24cc\JJ	.	.	.
8r	.	.	8r	.	24d/LL	.	24b-\LL	.	.	.	.	24b-\LL	.	.	.
.	.	.	.	.	24c/	.	24cc\	.	.	.	.	24cc\	.	.	.
.	.	.	.	.	24B-/JJ	.	24dd\JJ	.	.	.	.	24dd\JJ	.	.	.
8F\	X 7 4/	.	8f\	.	24An/LL	.	24cc\LL	.	.	.	.	24cc\LL	.	.	.
.	.	.	.	.	24B-/	.	24dd\	.	.	.	.	24dd\	.	.	.
.	.	.	.	.	24c/JJ	.	24ee-\JJ	.	.	.	.	24ee-\JJ	.	.	.
!	!	!	!LO:LB:g=original	!	!LO:LB:g=original	!	!	!	!	!	!	!	!	!	!
=55	=55	=55	=55	=55	=55	=55	=55	=55	=55	=55	=55	=55	=55	=55	=55
*	*	*	*	*	*Xtuplet	*	*	*	*	*	*	*	*	*	*
4B-\	.	.	4f\	.	24B-/LL	.	24dd\LL	.	2ryy	2ryy	2ryy	24dd\LL	.	2ryy	2ryy
.	.	.	.	.	24c/	.	24cc\	.	.	.	.	24cc\	.	.	.
.	.	.	.	.	24d/JJ	.	24b-\JJ	.	.	.	.	24b-\JJ	.	.	.
.	.	.	.	.	24c/LL	.	24an/LL	.	.	.	.	24an\LL	.	.	.
.	.	.	.	.	24d/	.	24b-/	.	.	.	.	24b-\	.	.	.
.	.	.	.	.	24e-/JJ	.	24cc/JJ	.	.	.	.	24cc\JJ	.	.	.
8r	.	.	8r	.	24d/LL	.	24b-\LL	.	.	.	.	24b-\LL	.	.	.
.	.	.	.	.	24c/	.	24cc\	.	.	.	.	24cc\	.	.	.
.	.	.	.	.	24B-/JJ	.	24dd\JJ	.	.	.	.	24dd\JJ	.	.	.
8F\	X X 7	.	8f\	.	24An/LL	.	24cc\LL	.	.	.	.	24cc\LL	.	.	.
.	.	.	.	.	24B-/	.	24dd\	.	.	.	.	24dd\	.	.	.
.	.	.	.	.	24c/JJ	.	24ee-\JJ	.	.	.	.	24ee-\JJ	.	.	.
!	!	!	!	!	!	!	!LO:LB:g=original	!	!	!	!	!	!	!	!
=56	=56	=56	=56	=56	=56	=56	=56	=56	=56	=56	=56	=56	=56	=56	=56
*	*	*	*	*	*	*	*tuplet	*	*	*	*	*	*	*	*
!	!	!	!LO:TX:t=P:problem:mixed beam	!	!	!	!	!	!	!	!	!	!	!	!
4B-\	.	.	8f\L	.	8B-/	.	24dd\LL	.	2ryy	2ryy	2ryy	8dd\	-li	2ryy	2ryy
.	.	.	.	.	.	.	24bb-\	.	.	.	.	.	.	.	.
.	.	.	.	.	.	.	24bb-\	.	.	.	.	.	.	.	.
.	.	.	8f\	.	8r	.	24bb-\	.	.	.	.	8b-\	ful-	.	.
.	.	.	.	.	.	.	24bb-\	.	.	.	.	.	.	.	.
.	.	.	.	.	.	.	24bb-\JJ	.	.	.	.	.	.	.	.
*	*	*	*	*	*tremolo	*	*tremolo	*	*	*	*	*	*	*	*
*	*	*	*	*	*tuplet	*	*	*	*	*	*	*	*	*	*
!	!	!	!	!	!LO:TX:a:t=P:problem:w źódle nad tą nutą "6" jako oznaczenie sekstoli	!	!LO:TX:a:t=P:problem:w źódle nad tą nutą "6" jako oznaczenie sekstoli	!	!	!	!	!	!	!	!
!	!	!	!	!	!LO:TX:a:t=P:problem:w źódle wartość 16.	!	!LO:TX:a:t=P:problem:w źódle wartość 16.	!	!	!	!	!	!	!	!
4D\	X X 6	.	8B-/	.	24ffLL 24b-\	.	24bb-\LL	.	.	.	.	8b-\	-gent	.	.
.	.	.	.	.	24ff 24b-\	.	24bb-\	.	.	.	.	.	.	.	.
.	.	.	.	.	24ff 24b-\	.	24bb-\	.	.	.	.	.	.	.	.
.	.	.	8B-/J	.	24ff 24b-\	.	24bb-\	.	.	.	.	8b-\	per	.	.
.	.	.	.	.	24ff 24b-\	.	24bb-\	.	.	.	.	.	.	.	.
.	.	.	.	.	24ffJJ 24b-\	.	24bb-\JJ	.	.	.	.	.	.	.	.
!	!	!	!	!	!	!	!	!	!	!	!	!LO:LB:g=original	!	!	!
*	*	*	*	*	*Xtremolo	*	*Xtremolo	*	*	*	*	*	*	*	*
=57	=57	=57	=57	=57	=57	=57	=57	=57	=57	=57	=57	=57	=57	=57	=57
*tremolo	*	*	*tremolo	*	*	*	*	*	*	*	*	*	*	*	*
.	X X 5	.	.	.	.	.	.	.	.	.	.	.	.	.	.
8E-\L	X X 6	.	8e-\L	.	24gg\LL	.	24bb-\LL	.	2ryy	2ryy	2ryy	[>4gg\	coe-	2ryy	2ryy
.	.	.	.	.	24gg\	.	24bb-\	.	.	.	.	.	.	.	.
.	.	.	.	.	24gg\	.	24bb-\	.	.	.	.	.	.	.	.
8E-\	.	.	8e-\	.	24gg\	.	24bb-\	.	.	.	.	.	.	.	.
.	.	.	.	.	24gg\	.	24bb-\	.	.	.	.	.	.	.	.
.	.	.	.	.	24gg\JJ	.	24bb-\JJ	.	.	.	.	.	.	.	.
*	*	*	*	*	*tremolo	*	*tremolo	*	*	*	*	*	*	*	*
*	*	*	*	*	*	*	*	*	*	*	*	*Xtuplet	*	*	*
!	!	!	!	!	!LO:TX:a:t=P:problem:w źódle nad tą nutą "6" jako oznaczenie sekstoli	!	!LO:TX:a:t=P:problem:w źódle nad tą nutą "6" jako oznaczenie sekstoli	!	!	!	!	!	!	!	!
!	!	!	!	!	!LO:TX:a:t=P:problem:w źódle wartość 16.	!	!LO:TX:a:t=P:problem:w źódle wartość 16.	!	!	!	!	!	!	!	!
8E-\	.	.	8e-\	.	24ggLL 24b-\	.	24bb-\LL	.	.	.	.	24gg\LL]	.	.	.
.	.	.	.	.	24gg 24b-\	.	24bb-\	.	.	.	.	24ff\	.	.	.
.	.	.	.	.	24gg 24b-\	.	24bb-\	.	.	.	.	24ee-\JJ	.	.	.
!	!	!	!	!	!	!	!	!	!	!	!	!LO:TUP:a:problem:klamra łukowa, kropka zamiast numeru	!	!	!
8E-\J	.	.	8e-\J	.	24gg 24b-\	.	24bb-\	.	.	.	.	24dd\LL	-li	.	.
.	.	.	.	.	24gg 24b-\	.	24bb-\	.	.	.	.	24cc\	.	.	.
.	.	.	.	.	24ggJJ 24b-\	.	24bb-\JJ	.	.	.	.	24b-\JJ	.	.	.
*Xtremolo	*	*	*Xtremolo	*	*Xtremolo	*	*Xtremolo	*	*	*	*	*	*	*	*
=58	=58	=58	=58	=58	=58	=58	=58	=58	=58	=58	=58	=58	=58	=58	=58
*tremolo	*	*	*tremolo	*	*tremolo	*	*tremolo	*	*	*	*	*	*	*	*
!	!	!	!	!	!	!	!LO:TX:a:t=P:problem:w źódle nad tą nutą "6" jako oznaczenie sekstoli	!	!	!	!	!	!	!	!
!	!	!	!	!	!LO:TX:a:t=P:problem:w źódle wartość 16.	!	!LO:TX:a:t=P:problem:w źódle wartość 16.	!	!	!	!	!	!	!	!
8F\L	X 6 4	.	8f\L	.	24ddLL 24f/	.	24bb-LL 24dd\	.	2ryy	2ryy	2ryy	2f/	a-	2ryy	2ryy
.	.	.	.	.	24dd 24f/	.	24bb- 24dd\	.	.	.	.	.	.	.	.
.	.	.	.	.	24dd 24f/	.	24bb- 24dd\	.	.	.	.	.	.	.	.
8F\	.	.	8f\	.	24dd 24f/	.	24bb- 24dd\	.	.	.	.	.	.	.	.
.	.	.	.	.	24dd 24f/	.	24bb- 24dd\	.	.	.	.	.	.	.	.
.	.	.	.	.	24ddJJ 24f/	.	24bb-JJ 24dd\	.	.	.	.	.	.	.	.
*	*	*	*	*	*Xtremolo	*	*Xtremolo	*	*	*	*	*	*	*	*
*	*	*	*	*	*tremolo	*	*tremolo	*	*	*	*	*	*	*	*
!	!	!	!	!	!	!	!LO:TX:a:t=P:problem:w źódle nad tą nutą "6" jako oznaczenie sekstoli	!	!	!	!	!	!	!	!
!	!	!	!	!	!	!	!	!LO:HP:b	!	!	!	!	!	!	!
!	!	!	!	!	!LO:TX:a:t=P:problem:w źódle wartość 16.	!	!LO:TX:a:t=P:problem:w źódle wartość 16.	!	!	!	!	!	!	!	!
8F\	.	.	8f\	.	24ddLL 24f/	.	24bb-LL 24dd\	<	.	.	.	.	.	.	.
.	.	.	.	.	24dd 24f/	.	24bb- 24dd\	.	.	.	.	.	.	.	.
.	.	.	.	.	24dd 24f/	.	24bb- 24dd\	.	.	.	.	.	.	.	.
8F\J	.	.	8f\J	.	24dd 24f/	.	24bb- 24dd\	.	.	.	.	.	.	.	.
.	.	.	.	.	24dd 24f/	.	24bb- 24dd\	.	.	.	.	.	.	.	.
.	.	.	.	.	24ddJJ 24f/	.	24bb-JJ 24dd\	.	.	.	.	.	.	.	.
*Xtremolo	*	*	*Xtremolo	*	*Xtremolo	*	*Xtremolo	*	*	*	*	*	*	*	*
=59	=59	=59	=59	=59	=59	=59	=59	=59	=59	=59	=59	=59	=59	=59	=59
*tremolo	*	*	*tremolo	*	*tremolo	*	*tremolo	*	*	*	*	*	*	*	*
!	!	!	!	!	!	!	!LO:TX:a:t=P:problem:w źódle nad tą nutą "6" jako oznaczenie sekstoli	!	!	!	!	!	!	!	!
!	!	!	!	!	!LO:TX:a:t=P:problem:w źódle wartość 16.	!	!LO:TX:a:t=P:problem:w źódle wartość 16.	!	!	!	!	!	!	!	!
.	X X 4/	.	.	.	.	.	.	.	.	.	.	.	.	.	.
8FF/L	X 5 3	.	8F/L	.	24ee-LL 24f/	.	24aanLL 24cc\	.	2ryy	2ryy	2ryy	4.ccT\	.	2ryy	2ryy
.	.	.	.	.	24ee- 24f/	.	24aa 24cc\	.	.	.	.	.	.	.	.
.	.	.	.	.	24ee- 24f/	.	24aa 24cc\	.	.	.	.	.	.	.	.
8FF/	.	.	8F/	.	24ee- 24f/	.	24aa 24cc\	.	.	.	.	.	.	.	.
.	.	.	.	.	24ee- 24f/	.	24aa 24cc\	.	.	.	.	.	.	.	.
.	.	.	.	.	24ee-JJ 24f/	.	24aaJJ 24cc\	.	.	.	.	.	.	.	.
*	*	*	*	*	*Xtremolo	*	*Xtremolo	*	*	*	*	*	*	*	*
*	*	*	*	*	*tremolo	*	*tremolo	*	*	*	*	*	*	*	*
!	!	!	!	!	!	!	!LO:TX:a:t=P:problem:w źódle nad tą nutą "6" jako oznaczenie sekstoli	!	!	!	!	!	!	!	!
!	!	!	!	!	!LO:TX:a:t=P:problem:w źódle wartość 16.	!	!LO:TX:a:t=P:problem:w źódle wartość 16.	!	!	!	!	!	!	!	!
8FF/	.	.	8F/	.	24ee-LL 24f/	.	24aaLL 24cc\	.	.	.	.	.	.	.	.
.	.	.	.	.	24ee- 24f/	.	24aa 24cc\	.	.	.	.	.	.	.	.
.	.	.	.	.	24ee- 24f/	.	24aa 24cc\	.	.	.	.	.	.	.	.
8FF/J	.	.	8F/J	.	24ee- 24f/	.	24aa 24cc\	.	.	.	.	8cc\	-tri-	.	.
.	.	.	.	.	24ee- 24f/	.	24aa 24cc\	.	.	.	.	.	.	.	.
.	.	.	.	.	24ee-JJ 24f/	.	24aaJJ 24cc\	.	.	.	.	.	.	.	.
!	!	!	!	!	!LO:LB:g=original	!	!	!	!	!	!	!	!	!	!
*Xtremolo	*	*	*Xtremolo	*	*Xtremolo	*	*Xtremolo	*	*	*	*	*	*	*	*
=60	=60	=60	=60	=60	=60	=60	=60	=60	=60	=60	=60	=60	=60	=60	=60
*	*	*	*	*	*Xtuplet	*	*Xtuplet	*	*	*	*	*	*	*	*
!LO:TX:t=P:problem:mixed beam	!	!	!	!	!	!	!	!	!	!	!	!	!	!	!
!	!	!	!	!LO:DY:b:t=for	!	!LO:DY:b:t=fo	!	!LO:DY:b:t=ffor	!	!	!	!	!	!	!
8BB-/L	.	.	8B-/L	f	24dd\LL	f	24bb-\LL	ff	2ryy	2ryy	2ryy	4b-\	-a	2ryy	2ryy
.	.	.	.	.	24b-\	.	24b-\	.	.	.	.	.	.	.	.
.	.	.	.	.	24dd\JJ	.	24dd\JJ	.	.	.	.	.	.	.	.
8B-\J	.	.	8B-/J	.	24ff\LL	.	24ff\LL	.	.	.	.	.	.	.	.
.	.	.	.	.	24dd\	.	24dd\	.	.	.	.	.	.	.	.
.	.	.	.	.	24ff\JJ	.	24ff\JJ	.	.	.	.	.	.	.	.
8r	.	.	8r	.	24bb-\LL	.	24bb-\LL	.	.	.	.	4r	.	.	.
.	.	.	.	.	24ddd\	.	24ddd\	.	.	.	.	.	.	.	.
.	.	.	.	.	24ccc\JJ	.	24ccc\JJ	.	.	.	.	.	.	.	.
8d\	X X 6	.	8f\	.	24bb-\LL	.	24bb-\LL	.	.	.	.	.	.	.	.
.	.	.	.	.	24ccc\	.	24ccc\	.	.	.	.	.	.	.	.
.	.	.	.	.	24aan\JJ	.	24aan\JJ	.	.	.	.	.	.	.	.
!	!	!	!	!	!	!	!LO:PB:g=original	!	!	!	!	!	!	!	!
=61	=61	=61	=61	=61	=61	=61	=61	=61	=61	=61	=61	=61	=61	=61	=61
!	!	!	!	!	!	!	!	!	!	!	!	!LO:N:vis=00	!	!	!
8e-\L	.	.	8B-/L	.	24gg\LL	.	24gg\LL	.	2ryy	2ryy	2ryy	0r	.	2ryy	2ryy
.	.	.	.	.	24bb-\	.	24bb-\	.	.	.	.	.	.	.	.
.	.	.	.	.	24aa-\JJ	.	24aan\JJ	.	.	.	.	.	.	.	.
8d\J	X X 6/	.	8Bn/J	.	24gg\LL	.	24gg\LL	.	.	.	.	.	.	.	.
.	.	.	.	.	24aa-\	.	24aa\	.	.	.	.	.	.	.	.
.	.	.	.	.	24ff\JJ	.	24ff\JJ	.	.	.	.	.	.	.	.
8.c\L	.	.	8G/L	.	24ee-\LL	.	24ee-\LL	.	.	.	.	.	.	.	.
.	.	.	.	.	24gg\	.	24gg\	.	.	.	.	.	.	.	.
.	.	.	.	.	24ff\JJ	.	24ff\JJ	.	.	.	.	.	.	.	.
.	.	.	8G/J	.	24ee-\LL	.	24ee-\LL	.	.	.	.	.	.	.	.
.	.	.	.	.	24ff\	.	24ff\	.	.	.	.	.	.	.	.
16B-\Jk	X X 6	.	.	.	.	.	.	.	.	.	.	.	.	.	.
.	.	.	.	.	24dd\JJ	.	24dd\JJ	.	.	.	.	.	.	.	.
=62	=62	=62	=62	=62	=62	=62	=62	=62	=62	=62	=62	=62	=62	=62	=62
8An\L	X 6 5	.	8.An/L	.	24cc\LL	.	24cc\LL	.	2ryy	2ryy	2ryy	.	.	2ryy	2ryy
.	.	.	.	.	24ee-\	.	24ee-\	.	.	.	.	.	.	.	.
.	.	.	.	.	24dd\JJ	.	24dd\JJ	.	.	.	.	.	.	.	.
8G\	.	.	.	.	24cc\LL	.	24cc\LL	.	.	.	.	.	.	.	.
.	.	.	.	.	24dd\	.	24dd\	.	.	.	.	.	.	.	.
.	.	.	16B-/K	.	.	.	.	.	.	.	.	.	.	.	.
.	.	.	.	.	24b-\JJ	.	24b-\JJ	.	.	.	.	.	.	.	.
8F\	.	.	8c/	.	24an\LL	.	24an/LL	.	.	.	.	.	.	.	.
.	.	.	.	.	24cc\	.	24cc/	.	.	.	.	.	.	.	.
.	.	.	.	.	24a\JJ	.	24a/JJ	.	.	.	.	.	.	.	.
!	!	!	!	!	!LO:TX:t=P:problem:mixed beam	!	!LO:TX:t=P:problem:mixed beam	!	!	!	!	!	!	!	!
8A\J	.	.	8F/J	.	24ee-\LL	.	24ee-\LL	.	.	.	.	.	.	.	.
.	.	.	.	.	24e-/	.	24e-/	.	.	.	.	.	.	.	.
.	.	.	.	.	24e-/JJ	.	24e-/JJ	.	.	.	.	.	.	.	.
!LO:LB:g=original	!	!	!	!	!LO:LB:g=original	!	!	!	!	!	!	!	!	!	!
=63	=63	=63	=63	=63	=63	=63	=63	=63	=63	=63	=63	=63	=63	=63	=63
!	!	!	!	!	!LO:TUP:a:problem:klamra łukowa, kropka zamiast numeru	!	!	!	!	!	!	!	!	!	!
!LO:TX:t=P:problem:mixed beam	!	!	!	!	!LO:TX:t=P:problem:mixed beam	!	!LO:TX:t=P:problem:mixed beam	!	!	!	!	!	!	!	!
8B-\L	.	.	8F/L	.	24d/LL	.	24d/LL	.	2ryy	2ryy	2ryy	.	.	2ryy	2ryy
.	.	.	.	.	24ff\	.	24ff\	.	.	.	.	.	.	.	.
.	.	.	.	.	24ff#X\JJ	.	24ff#X\JJ	.	.	.	.	.	.	.	.
!	!	!	!	!	!LO:TUP:a:problem:klamra łukowa, kropka zamiast numeru	!	!	!	!	!	!	!	!	!	!
8E-\	X X 6	.	8E-/	.	24gg\LL	.	24gg\LL	.	.	.	.	.	.	.	.
.	.	.	.	.	24ee-\	.	24ee-\	.	.	.	.	.	.	.	.
.	.	.	.	.	24cc\JJ	.	24cc\JJ	.	.	.	.	.	.	.	.
8F\	X 6 4	.	8F/	.	8b-/L	.	8b-/L	.	.	.	.	.	.	.	.
8FF/J	X X n	.	8F/J	.	8an/J	.	8an/J	.	.	.	.	.	.	.	.
=64	=64	=64	=64	=64	=64	=64	=64	=64	=64	=64	=64	=64	=64	=64	=64
*Xtuplet	*	*	*Xtuplet	*	*	*	*	*	*	*	*	*	*	*	*
!LO:TX:t=P:problem:mixed beam	!	!	!LO:TX:t=P:problem:mixed beam	!	!	!	!	!	!	!	!	!	!	!	!
24BB-/LL	.	.	24B-/LL	.	8.b-/L	.	8b-/L	.	2ryy	2ryy	2ryy	.	.	2ryy	2ryy
24B-\|	.	.	24b-\	.	.	.	.	.	.	.	.	.	.	.	.
24F\JJ|	.	.	24f\JJ	.	.	.	.	.	.	.	.	.	.	.	.
!	!	!	!	!	!	!	!	!LO:DY:b:t=p&colon;	!	!	!	!	!	!	!
24D\LL|	.	.	24d\LL	.	.	.	8cccJ 8dd 8f/	p	.	.	.	.	.	.	.
24F\|	.	.	24f\	.	.	.	.	.	.	.	.	.	.	.	.
.	.	.	.	.	16f/Jk	.	.	.	.	.	.	.	.	.	.
24D\JJ	.	.	24d\JJ	.	.	.	.	.	.	.	.	.	.	.	.
*	*	*	*	*	*	*	*tuplet	*	*	*	*	*	*	*	*
*	*	*	*	*	*	*	*tremolo	*	*	*	*	*	*	*	*
!	!	!	!	!	!	!	!LO:TX:a:t=P:problem:w źódle nad tą nutą "6" jako oznaczenie sekstoli	!	!	!	!	!	!	!	!
!	!	!	!	!	!	!	!LO:TX:a:t=P:problem:w źódle wartość 16.	!	!	!	!	!	!	!	!
8BB-'/	.	.	8B-/	.	24d/LL	.	24B-/LL	.	.	.	.	.	.	.	.
.	.	.	.	.	24B-/	.	24B-/	.	.	.	.	.	.	.	.
.	.	.	.	.	24B-/	.	24B-/	.	.	.	.	.	.	.	.
8r	.	.	8r	.	24B-/	.	24B-/	.	.	.	.	.	.	.	.
.	.	.	.	.	24B-/	.	24B-/	.	.	.	.	.	.	.	.
.	.	.	.	.	24B-/JJ	.	24B-/JJ	.	.	.	.	.	.	.	.
*	*	*	*	*	*	*	*Xtremolo	*	*	*	*	*	*	*	*
*	*	*	*	*	*	*	*Xtuplet	*	*	*	*	*	*	*	*
!	!	!	!LO:LB:g=original	!	!	!	!LO:LB:g=original	!	!	!	!	!	!	!	!
=65	=65	=65	=65	=65	=65	=65	=65	=65	=65	=65	=65	=65	=65	=65	=65
*tremolo	*	*	*	*	*	*	*	*	*	*	*	*	*	*	*
*	*	*	*	*	*2\right	*	*	*	*	*	*	*	*	*	*
!	!	!	!	!	!LO:TX:t=P:problem:2\right:global	!	!LO:TX:t=P:problem:mixed beam	!	!	!	!	!	!	!	!
!	!	!LO:DY:b:t=pia	!	!LO:DY:b:t=pia	!	!LO:DY:b:t=pia	!	!	!	!	!	!	!	!	!
8BB-/L	.	p	2d\	p	2b-\	p	24B-/LL	.	2ryy	2ryy	2ryy	8r	.	2ryy	2ryy
.	.	.	.	.	.	.	24b-\	.	.	.	.	.	.	.	.
.	.	.	.	.	.	.	24b-\JJ	.	.	.	.	.	.	.	.
8BB-/	.	.	.	.	.	.	24dd\LL	.	.	.	.	8b-\	Ut	.	.
.	.	.	.	.	.	.	24b-\	.	.	.	.	.	.	.	.
.	.	.	.	.	.	.	24b-\JJ	.	.	.	.	.	.	.	.
8BB-/	.	.	.	.	.	.	24ff\LL	.	.	.	.	8b-\	dul-	.	.
.	.	.	.	.	.	.	24b-\	.	.	.	.	.	.	.	.
.	.	.	.	.	.	.	24b-\JJ	.	.	.	.	.	.	.	.
8BB-/J	.	.	.	.	.	.	24dd\LL	.	.	.	.	8b-\	-ces	.	.
.	.	.	.	.	.	.	24b-\	.	.	.	.	.	.	.	.
.	.	.	.	.	.	.	24b-\JJ	.	.	.	.	.	.	.	.
*Xtremolo	*	*	*	*	*	*	*	*	*	*	*	*	*	*	*
=66	=66	=66	=66	=66	=66	=66	=66	=66	=66	=66	=66	=66	=66	=66	=66
*tremolo	*	*	*	*	*	*	*	*	*	*	*	*	*	*	*
8BB-/L	7n 4 2	.	2e-\	.	2an/	.	24B-/LL	.	2ryy	2ryy	2ryy	16.cc\LL	Stel-	2ryy	2ryy
.	.	.	.	.	.	.	24an/	.	.	.	.	.	.	.	.
.	.	.	.	.	.	.	24a/JJ	.	.	.	.	.	.	.	.
.	.	.	.	.	.	.	.	.	.	.	.	32dd\JJk	.	.	.
8BB-/	.	.	.	.	.	.	24cc/LL	.	.	.	.	4.cc\	-la	.	.
.	.	.	.	.	.	.	24a/	.	.	.	.	.	.	.	.
.	.	.	.	.	.	.	24a/JJ	.	.	.	.	.	.	.	.
8BB-/	.	.	.	.	.	.	24ee-/LL	.	.	.	.	.	.	.	.
.	.	.	.	.	.	.	24a/	.	.	.	.	.	.	.	.
.	.	.	.	.	.	.	24a/JJ	.	.	.	.	.	.	.	.
8BB-/J	.	.	.	.	.	.	24cc/LL	.	.	.	.	.	.	.	.
.	.	.	.	.	.	.	24a/	.	.	.	.	.	.	.	.
.	.	.	.	.	.	.	24a/JJ	.	.	.	.	.	.	.	.
*Xtremolo	*	*	*	*	*	*	*	*	*	*	*	*	*	*	*
=67	=67	=67	=67	=67	=67	=67	=67	=67	=67	=67	=67	=67	=67	=67	=67
*tremolo	*	*	*	*	*	*	*	*	*	*	*	*	*	*	*
8BB-/L	7- 5 3	.	2f\	.	2a-X/	.	24B-/LL	.	2ryy	2ryy	2ryy	8r	.	2ryy	2ryy
.	.	.	.	.	.	.	24a-X/	.	.	.	.	.	.	.	.
.	.	.	.	.	.	.	24a-/JJ	.	.	.	.	.	.	.	.
8BB-/	.	.	.	.	.	.	24dd/LL	.	.	.	.	8dd\	post	.	.
.	.	.	.	.	.	.	24a-/	.	.	.	.	.	.	.	.
.	.	.	.	.	.	.	24a-/JJ	.	.	.	.	.	.	.	.
!	!	!	!	!	!	!	!LO:TX:t=P:problem:mixed beam	!	!	!	!	!	!	!	!
8BB-/	.	.	.	.	.	.	24ff\LL	.	.	.	.	8dd\	vim	.	.
.	.	.	.	.	.	.	24a-/	.	.	.	.	.	.	.	.
.	.	.	.	.	.	.	24a-/JJ	.	.	.	.	.	.	.	.
8BB-/J	.	.	.	.	.	.	24dd/LL	.	.	.	.	8dd\	pro-	.	.
.	.	.	.	.	.	.	24a-/	.	.	.	.	.	.	.	.
.	.	.	.	.	.	.	24a-/JJ	.	.	.	.	.	.	.	.
!	!	!	!	!	!	!	!	!	!	!	!	!LO:LB:g=original	!	!	!
*Xtremolo	*	*	*	*	*	*	*	*	*	*	*	*	*	*	*
=68	=68	=68	=68	=68	=68	=68	=68	=68	=68	=68	=68	=68	=68	=68	=68
*tremolo	*	*	*	*	*	*	*	*	*	*	*	*	*	*	*
8BB-/L	X 6 4	.	2e-\	.	2g/	.	24B-/LL	.	2ryy	2ryy	2ryy	16.ee-\LL	-coe-	2ryy	2ryy
.	.	.	.	.	.	.	24g/	.	.	.	.	.	.	.	.
.	.	.	.	.	.	.	24g/	.	.	.	.	.	.	.	.
.	.	.	.	.	.	.	.	.	.	.	.	32ff\JJk	.	.	.
8BB-/	.	.	.	.	.	.	24b-/	.	.	.	.	4.ee-\	-la	.	.
.	.	.	.	.	.	.	24g/	.	.	.	.	.	.	.	.
.	.	.	.	.	.	.	24g/JJ	.	.	.	.	.	.	.	.
*	*	*	*	*	*	*	*tuplet	*	*	*	*	*	*	*	*
!	!	!	!	!	!	!	!LO:TUP:b	!	!	!	!	!	!	!	!
!	!	!	!	!	!	!	!LO:LB:g=original	!	!	!	!	!	!	!	!
!	!	!	!	!	!	!	!LO:TX:t=P:problem:mixed beam	!	!	!	!	!	!	!	!
8BB-/	.	.	.	.	.	.	24ee-\LL	.	.	.	.	.	.	.	.
.	.	.	.	.	.	.	24g/	.	.	.	.	.	.	.	.
.	.	.	.	.	.	.	24g/	.	.	.	.	.	.	.	.
8BB-/J	.	.	.	.	.	.	24b-/	.	.	.	.	.	.	.	.
.	.	.	.	.	.	.	24g/	.	.	.	.	.	.	.	.
.	.	.	.	.	.	.	24g/JJ	.	.	.	.	.	.	.	.
*	*	*	*	*	*	*	*Xtuplet	*	*	*	*	*	*	*	*
*Xtremolo	*	*	*	*	*	*	*	*	*	*	*	*	*	*	*
=69	=69	=69	=69	=69	=69	=69	=69	=69	=69	=69	=69	=69	=69	=69	=69
*tremolo	*	*	*	*	*	*	*	*	*	*	*	*	*	*	*
!	!	!	!	!	!	!	!LO:TX:t=P:problem:mixed beam	!	!	!	!	!	!	!	!
8BB-/L	X 7 3	.	2d\	.	2f/	.	24B-/LL	.	2ryy	2ryy	2ryy	8r	.	2ryy	2ryy
.	.	.	.	.	.	.	24b-\	.	.	.	.	.	.	.	.
.	.	.	.	.	.	.	24b-\JJ	.	.	.	.	.	.	.	.
8BB-/	.	.	.	.	.	.	24dd\LL	.	.	.	.	8b-\	post	.	.
.	.	.	.	.	.	.	24b-\	.	.	.	.	.	.	.	.
.	.	.	.	.	.	.	24b-\JJ	.	.	.	.	.	.	.	.
8BB-/	.	.	.	.	.	.	24ff\LL	.	.	.	.	8b-\	Sae-	.	.
.	.	.	.	.	.	.	24b-\	.	.	.	.	.	.	.	.
.	.	.	.	.	.	.	24b-\JJ	.	.	.	.	.	.	.	.
8BB-/J	.	.	.	.	.	.	24b-\LL	.	.	.	.	8aa-\	-vae	.	.
.	.	.	.	.	.	.	24aa-\	.	.	.	.	.	.	.	.
.	.	.	.	.	.	.	24aa-\JJ	.	.	.	.	.	.	.	.
*Xtremolo	*	*	*	*	*	*	*	*	*	*	*	*	*	*	*
=70	=70	=70	=70	=70	=70	=70	=70	=70	=70	=70	=70	=70	=70	=70	=70
*	*	*	*	*	*	*	*tuplet	*	*	*	*	*	*	*	*
!LO:TX:t=P:problem:mixed beam	!	!	!	!	!	!	!	!	!	!	!	!	!	!	!
8E-\L	.	.	8B-/L	.	8e-/	.	24gg\LL	.	2ryy	2ryy	2ryy	24gg\LL	vim	2ryy	2ryy
.	.	.	.	.	.	.	24ff\	.	.	.	.	24ff\	.	.	.
.	.	.	.	.	.	.	24ee-\	.	.	.	.	24ee-\JJ	.	.	.
8G\	X X 6	.	8B-/	.	4e-/	.	24dd\	.	.	.	.	24dd\LL	pro-	.	.
.	.	.	.	.	.	.	24ee-\	.	.	.	.	24ee-\	.	.	.
.	.	.	.	.	.	.	24cc\JJ	.	.	.	.	24cc\JJ	.	.	.
*	*	*	*	*	*	*	*Xtuplet	*	*	*	*	*	*	*	*
.	.	.	.	.	.	.	8qqb-/	.	.	.	.	8qqb-/	.	.	.
8F\	X X 7	.	8c/	.	.	.	4a-/	.	.	.	.	4a-\	-coe-	.	.
8BB-/J	X X 4	.	8B-/J	.	8d/	.	.	.	.	.	.	.	.	.	.
!	!	!	!	!	!LO:LB:g=original	!	!	!	!	!	!	!	!	!	!
=71	=71	=71	=71	=71	=71	=71	=71	=71	=71	=71	=71	=71	=71	=71	=71
*	*	*	*tuplet	*	*	*	*	*	*	*	*	*	*	*	*
!	!	!	!LO:TUP:b	!	!	!	!	!	!	!	!	!	!	!	!
!	!	!	!	!LO:DY:b:t=fo	!	!LO:DY:b:t=fo	!	!	!	!	!	!	!	!	!
8E-\	.	.	24B-/LL	f	24e-/LL	f	8g/	.	2ryy	2ryy	2ryy	4g\	-la	2ryy	2ryy
.	.	.	24G/	.	24B-/	.	.	.	.	.	.	.	.	.	.
.	.	.	24G/	.	24B-/	.	.	.	.	.	.	.	.	.	.
8r	.	.	24G/	.	24B-/	.	8r	.	.	.	.	.	.	.	.
.	.	.	24G/	.	24B-/	.	.	.	.	.	.	.	.	.	.
!	!	!	!	!	!	!	!	!LO:DY:b:t=fo&colon;	!	!	!	!	!	!	!
.	.	.	24G/JJ	.	24B-/JJ	.	.	f	.	.	.	.	.	.	.
!	!	!	!LO:TUP:b	!	!	!	!	!	!	!	!	!	!	!	!
8BB-/	.	.	24A-/LL	.	24f/LL	.	8b-\	.	.	.	.	4r	.	.	.
.	.	.	24F/	.	24A-/	.	.	.	.	.	.	.	.	.	.
.	.	.	24F/	.	24A-/	.	.	.	.	.	.	.	.	.	.
8r	.	.	24F/	.	24A-/	.	8r	.	.	.	.	.	.	.	.
.	.	.	24F/	.	24A-/	.	.	.	.	.	.	.	.	.	.
.	.	.	24F/JJ	.	24A-/JJ	.	.	.	.	.	.	.	.	.	.
=72	=72	=72	=72	=72	=72	=72	=72	=72	=72	=72	=72	=72	=72	=72	=72
*	*	*	*	*	*tremolo	*	*	*	*	*	*	*	*	*	*
!	!	!	!LO:TX:t=P:problem:mixed beam	!	!	!	!	!	!	!	!	!	!	!	!
!	!	!	!	!	!LO:TX:a:t=P:problem:w źódle wartość 16.	!	!	!	!	!	!	!	!	!	!
8E-\L	.	.	8E-/L	.	24e-LL 24G/	.	24r	.	2ryy	2ryy	2ryy	2r	.	2ryy	2ryy
.	.	.	.	.	24e- 24G/	.	24e-LL 24G/	.	.	.	.	.	.	.	.
.	.	.	.	.	24e- 24G/	.	24e- 24G/	.	.	.	.	.	.	.	.
8E-\J	.	.	8e-\J	.	24e- 24G/	.	24e- 24G/	.	.	.	.	.	.	.	.
.	.	.	.	.	24e- 24G/	.	24e- 24G/	.	.	.	.	.	.	.	.
.	.	.	.	.	24e-JJ 24G/	.	24e-JJ 24G/	.	.	.	.	.	.	.	.
*	*	*	*	*	*Xtremolo	*	*	*	*	*	*	*	*	*	*
!	!	!	!	!	!	!	!LO:N:vis=4	!	!	!	!	!	!	!	!
4E-\	.	.	4e-\	.	4e- 4G/	.	8e- 8G/	.	.	.	.	.	.	.	.
.	.	.	.	.	.	.	8r	.	.	.	.	.	.	.	.
!LO:LB:g=original	!	!	!	!	!	!	!LO:LB:g=original	!	!	!	!	!	!	!	!
=73	=73	=73	=73	=73	=73	=73	=73	=73	=73	=73	=73	=73	=73	=73	=73
*	*	*	*	*	*	*	*tuplet	*	*	*	*	*	*	*	*
!	!	!	!	!	!	!	!LO:TUP:b	!	!	!	!	!	!	!	!
!	!	!	!	!LO:DY:b:t=po	!	!	!LO:TX:t=P:problem:mixed beam	!	!	!	!	!LO:TX:t=P:problem:mixed beam	!	!	!
8E-\	.	.	16b-\LL	p	4r	.	24ee-\LL	.	2ryy	2ryy	2ryy	16ee-\LL	ful-	2ryy	2ryy
!	!	!	!	!	!	!	!	!LO:DY:b:t=po	!	!	!	!	!	!	!
.	.	.	.	.	.	.	24g/	p	.	.	.	.	.	.	.
.	.	.	16g\	.	.	.	.	.	.	.	.	16g/JJ	.	.	.
.	.	.	.	.	.	.	24g/	.	.	.	.	.	.	.	.
8r	.	.	16b-\	.	.	.	24g/	.	.	.	.	8g/	-gent	.	.
.	.	.	.	.	.	.	24g/	.	.	.	.	.	.	.	.
.	.	.	16g\JJ	.	.	.	.	.	.	.	.	.	.	.	.
.	.	.	.	.	.	.	24g/JJ	.	.	.	.	.	.	.	.
8D-X\	X 4 2	.	16b-\LL	.	24e-/LL	.	8g/	.	.	.	.	8r	.	.	.
.	.	.	.	.	24G/	.	.	.	.	.	.	.	.	.	.
.	.	.	16g\	.	.	.	.	.	.	.	.	.	.	.	.
.	.	.	.	.	24G/	.	.	.	.	.	.	.	.	.	.
8r	.	.	16b-\	.	24G/	.	8r	.	.	.	.	8ee-\	per	.	.
.	.	.	.	.	24G/	.	.	.	.	.	.	.	.	.	.
.	.	.	16g\JJ	.	.	.	.	.	.	.	.	.	.	.	.
.	.	.	.	.	24G/JJ	.	.	.	.	.	.	.	.	.	.
=74	=74	=74	=74	=74	=74	=74	=74	=74	=74	=74	=74	=74	=74	=74	=74
*	*	*	*tremolo	*	*	*	*	*	*	*	*	*	*	*	*
!	!	!	!	!	!	!	!LO:TUP:b	!	!	!	!	!	!	!	!
!	!	!	!	!	!	!	!LO:TX:t=P:problem:mixed beam	!	!	!	!	!	!	!	!
!	!	!	!LO:TX:a:t=P:problem:w źródle laski obu nut tremola po prawej stronie	!	!	!	!	!	!	!	!	!	!	!	!
8C/	X X 6	.	16cc\LL	.	8A-/	.	24ee-\LL	.	2ryy	2ryy	2ryy	16ee-\LL	coe-	2ryy	2ryy
.	.	.	.	.	.	.	24a-/	.	.	.	.	.	.	.	.
.	.	.	16a-\	.	.	.	.	.	.	.	.	16a-\JJ	.	.	.
.	.	.	.	.	.	.	24a-/	.	.	.	.	.	.	.	.
8r	.	.	16cc\	.	8r	.	24a-/	.	.	.	.	8a-\	-li	.	.
.	.	.	.	.	.	.	24a-/	.	.	.	.	.	.	.	.
.	.	.	16a-\	.	.	.	.	.	.	.	.	.	.	.	.
.	.	.	.	.	.	.	24a-/JJ	.	.	.	.	.	.	.	.
8AA-/	.	.	16cc\	.	24e-/LL	.	8a-/	.	.	.	.	8r	.	.	.
.	.	.	.	.	24A-/	.	.	.	.	.	.	.	.	.	.
.	.	.	16a-\	.	.	.	.	.	.	.	.	.	.	.	.
.	.	.	.	.	24A-/	.	.	.	.	.	.	.	.	.	.
8r	.	.	16cc\	.	24A-/	.	8r	.	.	.	.	8ee-\	per	.	.
.	.	.	.	.	24A-/	.	.	.	.	.	.	.	.	.	.
.	.	.	16a-\JJ	.	.	.	.	.	.	.	.	.	.	.	.
.	.	.	.	.	24A-/JJ	.	.	.	.	.	.	.	.	.	.
!	!	!	!LO:LB:g=original	!	!	!	!	!	!	!	!	!	!	!	!
*	*	*	*Xtremolo	*	*	*	*	*	*	*	*	*	*	*	*
=75	=75	=75	=75	=75	=75	=75	=75	=75	=75	=75	=75	=75	=75	=75	=75
!	!	!	!	!	!	!	!LO:TUP:b	!	!	!	!	!	!	!	!
!	!	!	!	!	!	!	!LO:TX:t=P:problem:mixed beam	!	!	!	!	!	!	!	!
8E-\	X X 7-	.	16b-\LL	.	8G/	.	24dd-X\LL	.	2ryy	2ryy	2ryy	[>4dd-X\	coe-	2ryy	2ryy
.	.	.	.	.	.	.	24e-/	.	.	.	.	.	.	.	.
.	.	.	16g\	.	.	.	.	.	.	.	.	.	.	.	.
.	.	.	.	.	.	.	24e-/	.	.	.	.	.	.	.	.
8r	.	.	16b-\	.	8r	.	24e-/	.	.	.	.	.	.	.	.
.	.	.	.	.	.	.	24e-/	.	.	.	.	.	.	.	.
.	.	.	16g\JJ	.	.	.	.	.	.	.	.	.	.	.	.
.	.	.	.	.	.	.	24e-/JJ	.	.	.	.	.	.	.	.
!	!	!	!	!	!LO:LB:g=original	!	!	!	!	!	!	!	!	!	!
8E-\	.	.	16dd-X\LL	.	24b-/LL	.	8e-/	.	.	.	.	16dd-\LL]	.	.	.
.	.	.	.	.	24e-/	.	.	.	.	.	.	.	.	.	.
.	.	.	16b-\	.	.	.	.	.	.	.	.	16ff\	.	.	.
.	.	.	.	.	24e-/	.	.	.	.	.	.	.	.	.	.
8r	.	.	16dd-\	.	24e-/	.	8r	.	.	.	.	16ee-\	.	.	.
.	.	.	.	.	24e-/	.	.	.	.	.	.	.	.	.	.
.	.	.	16b-\JJ	.	.	.	.	.	.	.	.	16dd-\JJ	.	.	.
.	.	.	.	.	24e-/JJ	.	.	.	.	.	.	.	.	.	.
!	!	!	!	!	!	!	!	!	!	!	!	!LO:LB:g=original	!	!	!
=76	=76	=76	=76	=76	=76	=76	=76	=76	=76	=76	=76	=76	=76	=76	=76
4A-\	.	.	4a-\	.	4cc 4e-/	.	4aa- 4cc 4e-\	.	2ryy	2ryy	2ryy	24cc\LL	.	2ryy	2ryy
.	.	.	.	.	.	.	.	.	.	.	.	24ee-\	.	.	.
.	.	.	.	.	.	.	.	.	.	.	.	24aa-\JJ	.	.	.
.	.	.	.	.	.	.	.	.	.	.	.	24gg\LL	.	.	.
.	.	.	.	.	.	.	.	.	.	.	.	24ff\	.	.	.
.	.	.	.	.	.	.	.	.	.	.	.	24ee-\JJ	.	.	.
8r	.	.	8r	.	8r	.	8r	.	.	.	.	24dd-X\LL	.	.	.
.	.	.	.	.	.	.	.	.	.	.	.	24cc\	.	.	.
.	.	.	.	.	.	.	.	.	.	.	.	24b-\JJ	.	.	.
8E-\	X X 7-	.	8e-\	.	8dd-X 8e-/	.	8bb- 8dd-X 8e-\	.	.	.	.	24ff\LL	.	.	.
.	.	.	.	.	.	.	.	.	.	.	.	24ee-\	.	.	.
.	.	.	.	.	.	.	.	.	.	.	.	24dd-\JJ	.	.	.
=77	=77	=77	=77	=77	=77	=77	=77	=77	=77	=77	=77	=77	=77	=77	=77
4A-\	.	.	4e-\	.	4cc 4e-/	.	4aa- 4cc 4e-\	.	2ryy	2ryy	2ryy	24cc\LL	.	2ryy	2ryy
.	.	.	.	.	.	.	.	.	.	.	.	24ee-\	.	.	.
.	.	.	.	.	.	.	.	.	.	.	.	24aa-\JJ	.	.	.
.	.	.	.	.	.	.	.	.	.	.	.	24gg\LL	.	.	.
.	.	.	.	.	.	.	.	.	.	.	.	24ff\	.	.	.
.	.	.	.	.	.	.	.	.	.	.	.	24ee-\JJ	.	.	.
8r	.	.	8r	.	8r	.	8r	.	.	.	.	24dd-X\LL	.	.	.
.	.	.	.	.	.	.	.	.	.	.	.	24cc\	.	.	.
.	.	.	.	.	.	.	.	.	.	.	.	24b-\JJ	.	.	.
8E-\	X X 7	.	8e-\	.	8dd-X 8e-/	.	8bb- 8dd-X 8e-\	.	.	.	.	24ff\LL	.	.	.
.	.	.	.	.	.	.	.	.	.	.	.	24ee-\	.	.	.
.	.	.	.	.	.	.	.	.	.	.	.	24dd-\JJ	.	.	.
!	!	!	!	!	!	!	!LO:LB:g=original	!	!	!	!	!	!	!	!
=78	=78	=78	=78	=78	=78	=78	=78	=78	=78	=78	=78	=78	=78	=78	=78
*	*	*	*	*	*	*	*	*	*	*	*	*tuplet	*	*	*
8A-\L	.	.	8cc\L	.	4cc 4d/	.	4aa- 4cc 4e-\	.	2ryy	2ryy	2ryy	24cc\LL	.	2ryy	2ryy
.	.	.	.	.	.	.	.	.	.	.	.	24a-\	.	.	.
.	.	.	.	.	.	.	.	.	.	.	.	24b-\	.	.	.
8A-\	.	.	8a-\	.	.	.	.	.	.	.	.	24cc\	.	.	.
.	.	.	.	.	.	.	.	.	.	.	.	24b-\	.	.	.
.	.	.	.	.	.	.	.	.	.	.	.	24a-\JJ	.	.	.
*	*	*	*	*	*tuplet	*	*	*	*	*	*	*	*	*	*
!	!	!	!	!	!LO:TX:a:t=P:problem:w źródle nie ma klamry nad nutami; jest sama cyfra "6"	!	!LO:TX:a:t=P:problem:w źródle nie ma klamry nad nutami; jest sama cyfra "6"	!	!	!	!	!	!	!	!
8A-\	.	.	8cc\	.	24r	.	24r	.	.	.	.	[<4ee-\	.	.	.
.	.	.	.	.	24a-\LL	.	24cc\LL	.	.	.	.	.	.	.	.
.	.	.	.	.	24a-\	.	24cc\	.	.	.	.	.	.	.	.
8A-\J	.	.	8a-\J	.	24a-\	.	24cc\	.	.	.	.	.	.	.	.
.	.	.	.	.	24cc\	.	24ff\	.	.	.	.	.	.	.	.
.	.	.	.	.	24ee-\JJ	.	24aa-\JJ	.	.	.	.	.	.	.	.
=79	=79	=79	=79	=79	=79	=79	=79	=79	=79	=79	=79	=79	=79	=79	=79
*tremolo	*	*	*	*	*	*	*	*	*	*	*	*	*	*	*
*	*	*	*	*	*	*	*	*	*	*	*	*Xtuplet	*	*	*
8A-\L	.	.	8cc\L	.	4aa-\	.	4ccc\	.	2ryy	2ryy	2ryy	24ee-\LL]	.	2ryy	2ryy
.	.	.	.	.	.	.	.	.	.	.	.	24cc\	.	.	.
.	.	.	.	.	.	.	.	.	.	.	.	24dd-X\	.	.	.
8A-\	.	.	8a-\	.	.	.	.	.	.	.	.	24ee-\	.	.	.
.	.	.	.	.	.	.	.	.	.	.	.	24dd-\	.	.	.
.	.	.	.	.	.	.	.	.	.	.	.	24cc\JJ	.	.	.
*	*	*	*	*	*	*	*	*	*	*	*	*tuplet	*	*	*
8A-\	.	.	8cc\	.	8r	.	8r	.	.	.	.	24aa-\LL	.	.	.
.	.	.	.	.	.	.	.	.	.	.	.	24gg\	.	.	.
.	.	.	.	.	.	.	.	.	.	.	.	24ff\	.	.	.
8A-\J	.	.	8a-\J	.	8a-/	.	8cc\	.	.	.	.	24ee-\	.	.	.
.	.	.	.	.	.	.	.	.	.	.	.	24dd-\	.	.	.
.	.	.	.	.	.	.	.	.	.	.	.	24cc\JJ	.	.	.
!	!	!	!	!	!	!	!	!	!	!	!	!LO:LB:g=original	!	!	!
*Xtremolo	*	*	*	*	*	*	*	*	*	*	*	*	*	*	*
=80	=80	=80	=80	=80	=80	=80	=80	=80	=80	=80	=80	=80	=80	=80	=80
8E-\L	.	.	8b-\L	.	4g/	.	4b-\	.	2ryy	2ryy	2ryy	24b-\LL	.	2ryy	2ryy
.	.	.	.	.	.	.	.	.	.	.	.	24g\	.	.	.
.	.	.	.	.	.	.	.	.	.	.	.	24a-\	.	.	.
8E-\	.	.	8g\	.	.	.	.	.	.	.	.	24b-\	.	.	.
.	.	.	.	.	.	.	.	.	.	.	.	24a-\	.	.	.
.	.	.	.	.	.	.	.	.	.	.	.	24g\JJ	.	.	.
!	!	!	!	!	!LO:TUP:b	!	!	!	!	!	!	!	!	!	!
!	!	!	!	!	!LO:TX:a:t=P:problem:w źródle nie ma klamry pod nutami; jest sama cyfra "6"	!	!LO:TX:a:t=P:problem:w źródle nie ma klamry nad nutami; jest sama cyfra "6"	!	!	!	!	!	!	!	!
8E-\	.	.	8b-\	.	24r	.	24r	.	.	.	.	[<4ee-\	.	.	.
.	.	.	.	.	24g/LL	.	24b-\LL	.	.	.	.	.	.	.	.
.	.	.	.	.	24g/	.	24b-\	.	.	.	.	.	.	.	.
8E-\J	.	.	8g\J	.	24g/	.	24b-\	.	.	.	.	.	.	.	.
.	.	.	.	.	24b-/	.	24ee-\	.	.	.	.	.	.	.	.
.	.	.	.	.	24ee-/JJ	.	24gg\JJ	.	.	.	.	.	.	.	.
=81	=81	=81	=81	=81	=81	=81	=81	=81	=81	=81	=81	=81	=81	=81	=81
*tremolo	*	*	*	*	*	*	*	*	*	*	*	*	*	*	*
*	*	*	*	*	*	*	*	*	*	*	*	*Xtuplet	*	*	*
8E-\L	.	.	8b-\L	.	4gg\	.	4bb-\	.	2ryy	2ryy	2ryy	24ee-\LL]	.	2ryy	2ryy
.	.	.	.	.	.	.	.	.	.	.	.	24gg\	.	.	.
.	.	.	.	.	.	.	.	.	.	.	.	24ff\	.	.	.
8E-\	.	.	8g\	.	.	.	.	.	.	.	.	24ee-\	.	.	.
.	.	.	.	.	.	.	.	.	.	.	.	24dd\	.	.	.
.	.	.	.	.	.	.	.	.	.	.	.	24cc\JJ	.	.	.
8E-\	.	.	8b-\	.	8r	.	8r	.	.	.	.	24b-\LL	.	.	.
.	.	.	.	.	.	.	.	.	.	.	.	24g\	.	.	.
.	.	.	.	.	.	.	.	.	.	.	.	24a-\	.	.	.
8E-\J	.	.	8g\J	.	8g/	.	8b-\	.	.	.	.	24b-\	.	.	.
.	.	.	.	.	.	.	.	.	.	.	.	24a-\	.	.	.
.	.	.	.	.	.	.	.	.	.	.	.	24g\JJ	.	.	.
*Xtremolo	*	*	*	*	*	*	*	*	*	*	*	*	*	*	*
!LO:LB:g=original	!	!	!	!	!	!	!	!	!	!	!	!	!	!	!
=82	=82	=82	=82	=82	=82	=82	=82	=82	=82	=82	=82	=82	=82	=82	=82
*tremolo	*	*	*	*	*	*	*	*	*	*	*	*	*	*	*
8B-\L	.	.	8a-\L	.	4f/	.	4a-/	.	2ryy	2ryy	2ryy	24a-\LL	.	2ryy	2ryy
.	.	.	.	.	.	.	.	.	.	.	.	24dd\	.	.	.
.	.	.	.	.	.	.	.	.	.	.	.	24ee-\	.	.	.
8B-\	.	.	8f\	.	.	.	.	.	.	.	.	24ff\	.	.	.
.	.	.	.	.	.	.	.	.	.	.	.	24ee-\	.	.	.
.	.	.	.	.	.	.	.	.	.	.	.	24dd\JJ	.	.	.
!	!	!	!	!	!LO:LB:g=original	!	!	!	!	!	!	!	!	!	!
!	!	!	!	!	!LO:TUP:b	!	!	!	!	!	!	!	!	!	!
!	!	!	!	!	!LO:TX:a:t=P:problem:w źródle nie ma klamry pod nutami; jest sama cyfra "6"	!	!LO:TX:a:t=P:problem:w źródle nie ma klamry nad nutami; jest sama cyfra "6"	!	!	!	!	!	!	!	!
8B-\	.	.	8a-\	.	24r	.	24r	.	.	.	.	4aa-\	.	.	.
.	.	.	.	.	24f/LL	.	24a-\LL	.	.	.	.	.	.	.	.
.	.	.	.	.	24f/	.	24a-\	.	.	.	.	.	.	.	.
8B-\J	.	.	8f\J	.	24f/	.	24a-\	.	.	.	.	.	.	.	.
.	.	.	.	.	24b-/	.	24cc\	.	.	.	.	.	.	.	.
.	.	.	.	.	24dd/JJ	.	24ff\JJ	.	.	.	.	.	.	.	.
*Xtremolo	*	*	*	*	*	*	*	*	*	*	*	*	*	*	*
=83	=83	=83	=83	=83	=83	=83	=83	=83	=83	=83	=83	=83	=83	=83	=83
*tremolo	*	*	*	*	*	*	*	*	*	*	*	*	*	*	*
*	*	*	*	*	*Xtuplet	*	*Xtuplet	*	*	*	*	*	*	*	*
!	!	!	!LO:TX:t=P:problem:mixed beam	!	!	!	!	!	!	!	!	!	!	!	!
8BB-/L	X X 7	.	8a-\L	.	24ff\LL	.	24aa-\LL	.	2ryy	2ryy	2ryy	24aa-\LL	.	2ryy	2ryy
.	.	.	.	.	24gg\	.	24bb-\	.	.	.	.	24bb-\	.	.	.
.	.	.	.	.	24ee-\JJ	.	24gg\JJ	.	.	.	.	24gg\JJ	.	.	.
8BB-/	.	.	8f\	.	24dd\LL	.	24ff\LL	.	.	.	.	24ff\LL	.	.	.
.	.	.	.	.	24ee-\	.	24gg\	.	.	.	.	24gg\	.	.	.
.	.	.	.	.	24cc\JJ	.	24ee-\JJ	.	.	.	.	24ee-\JJ	.	.	.
!	!	!	!	!	!	!	!LO:LB:g=original	!	!	!	!	!	!	!	!
8BB-/	.	.	8a-\	.	24b-\LL	.	24dd\LL	.	.	.	.	24dd\LL	.	.	.
.	.	.	.	.	24cc\	.	24ee-\	.	.	.	.	24ee-\	.	.	.
.	.	.	.	.	24a-\JJ	.	24cc\JJ	.	.	.	.	24cc\JJ	.	.	.
8BB-/J	.	.	8B-/J	.	24g/LL	.	24b-\LL	.	.	.	.	24b-\LL	.	.	.
.	.	.	.	.	24a-/	.	24cc\	.	.	.	.	24cc\	.	.	.
.	.	.	.	.	24f/JJ	.	24a-\JJ	.	.	.	.	24a-\JJ	.	.	.
*Xtremolo	*	*	*	*	*	*	*	*	*	*	*	*	*	*	*
=84	=84	=84	=84	=84	=84	=84	=84	=84	=84	=84	=84	=84	=84	=84	=84
*	*	*	*	*	*	*	*	*	*	*	*	*tuplet	*	*	*
!	!	!	!	!	!	!	!LO:TX:t=P:problem:mixed beam	!	!	!	!	!	!	!	!
8E-\	.	.	8B-/	.	8e-/L	.	8g/L	.	2ryy	2ryy	2ryy	24g\LL	.	2ryy	2ryy
.	.	.	.	.	.	.	.	.	.	.	.	24b-\	.	.	.
.	.	.	.	.	.	.	.	.	.	.	.	24ee-\	.	.	.
8r	.	.	4B-/	.	8g/	.	8ee-\J	.	.	.	.	24gg\	.	.	.
.	.	.	.	.	.	.	.	.	.	.	.	24ff\	.	.	.
.	.	.	.	.	.	.	.	.	.	.	.	24ee-\JJ	.	.	.
!	!	!	!	!	!	!	!LO:TX:t=P:problem:mixed beam	!	!	!	!	!	!	!	!
8BB-/	X X 7	.	.	.	8a-/	.	8ff\L	.	.	.	.	24dd\LL	.	.	.
.	.	.	.	.	.	.	.	.	.	.	.	24ff\	.	.	.
.	.	.	.	.	.	.	.	.	.	.	.	24b-\	.	.	.
8r	.	.	8B-/	.	8f/J	.	8a-/J	.	.	.	.	24cc\	.	.	.
.	.	.	.	.	.	.	.	.	.	.	.	24b-\	.	.	.
.	.	.	.	.	.	.	.	.	.	.	.	24a-\JJ	.	.	.
!	!	!	!LO:LB:g=original	!	!	!	!	!	!	!	!	!LO:LB:g=original	!	!	!
=85	=85	=85	=85	=85	=85	=85	=85	=85	=85	=85	=85	=85	=85	=85	=85
*	*	*	*	*	*	*	*	*	*	*	*	*Xtuplet	*	*	*
!	!	!	!	!	!	!	!LO:TX:t=P:problem:mixed beam	!	!	!	!	!	!	!	!
8E-\	.	.	8B-/	.	8e-/L	.	8g/L	.	2ryy	2ryy	2ryy	24g\LL	.	2ryy	2ryy
.	.	.	.	.	.	.	.	.	.	.	.	24b-\	.	.	.
.	.	.	.	.	.	.	.	.	.	.	.	24ee-\	.	.	.
8r	.	.	4B-/	.	8g/	.	8ee-\J	.	.	.	.	24gg\	.	.	.
.	.	.	.	.	.	.	.	.	.	.	.	24ff\	.	.	.
.	.	.	.	.	.	.	.	.	.	.	.	24ee-\JJ	.	.	.
!	!	!	!	!	!	!	!LO:TX:t=P:problem:mixed beam	!	!	!	!	!	!	!	!
8BB-/	.	.	.	.	8a-/	.	8ff\L	.	.	.	.	24dd\LL	.	.	.
.	.	.	.	.	.	.	.	.	.	.	.	24ff\	.	.	.
.	.	.	.	.	.	.	.	.	.	.	.	24b-\	.	.	.
8r	.	.	8B-/	.	8f/J	.	8a-/J	.	.	.	.	24cc\	.	.	.
.	.	.	.	.	.	.	.	.	.	.	.	24b-\	.	.	.
.	.	.	.	.	.	.	.	.	.	.	.	24a-\JJ	.	.	.
=86	=86	=86	=86	=86	=86	=86	=86	=86	=86	=86	=86	=86	=86	=86	=86
*	*	*	*	*	*tuplet	*	*tuplet	*	*	*	*	*	*	*	*
!	!	!	!	!	!LO:TX:t=P:problem:mixed beam	!	!LO:TX:t=P:problem:mixed beam	!	!	!	!	!	!	!	!
8E-\	.	.	8B-/L	.	24e-/LL	.	24g/LL	.	2ryy	2ryy	2ryy	8g\	-la	2ryy	2ryy
.	.	.	.	.	24ee-\	.	24gg\	.	.	.	.	.	.	.	.
.	.	.	.	.	24ee-\	.	24gg\	.	.	.	.	.	.	.	.
8r	.	.	8B-/	.	24ee-\	.	24gg\	.	.	.	.	8ee-\	per	.	.
.	.	.	.	.	24ee-\	.	24gg\	.	.	.	.	.	.	.	.
.	.	.	.	.	24ee-/JJ	.	24gg\JJ	.	.	.	.	.	.	.	.
!	!	!	!	!	!LO:TX:t=P:problem:mixed beam	!	!LO:TX:t=P:problem:mixed beam	!	!	!	!	!	!	!	!
!	!	!	!	!	!LO:TUP:b	!	!LO:TUP:b	!	!	!	!	!	!	!	!
8AAn/L	X 7 5	.	8c/	.	24ee-\LL	.	24gg\LL	.	.	.	.	8ee-\	cae-	.	.
.	.	.	.	.	24e-/	.	24g/	.	.	.	.	.	.	.	.
.	.	.	.	.	24e-/	.	24g/	.	.	.	.	.	.	.	.
8AA/J	.	.	8c/J	.	24e-/	.	24g/	.	.	.	.	8g/	-li	.	.
.	.	.	.	.	24e-/	.	24g/	.	.	.	.	.	.	.	.
.	.	.	.	.	24e-/JJ	.	24g/JJ	.	.	.	.	.	.	.	.
!	!	!	!	!	!LO:LB:g=original	!	!	!	!	!	!	!	!	!	!
=87	=87	=87	=87	=87	=87	=87	=87	=87	=87	=87	=87	=87	=87	=87	=87
!LO:TX:t=P:problem:mixed beam	!	!	!LO:TX:t=P:problem:mixed beam	!	!LO:TX:t=P:problem:mixed beam	!	!	!	!	!	!	!	!	!	!
!	!	!LO:DY:b:t=for	!	!	!	!	!	!	!	!	!	!	!	!	!
8BB-/L	.	f	8B-/L	.	8e-/L	.	8g/L	.	2ryy	2ryy	2ryy	16.g/	a-	2ryy	2ryy
.	.	.	.	.	.	.	.	.	.	.	.	32g/	-tri-	.	.
*	*	*	*	*	*Xtuplet	*	*Xtuplet	*	*	*	*	*	*	*	*
!	!	!	!	!	!	!LO:DY:b:t=fo..	!	!LO:DY:b:t=fo	!	!	!	!	!	!	!
24B-\L|	.	.	8f\	.	24d/L	f	24f/L	f	.	.	.	8f/	-a	.	.
24d\|	.	.	.	.	24dd\	.	24dd/	.	.	.	.	.	.	.	.
24B-\JJ|	.	.	.	.	24b-\JJ	.	24b-/JJ	.	.	.	.	.	.	.	.
24F\LL|	.	.	8f\	.	24f/LL	.	24f/LL	.	.	.	.	4r	.	.	.
24B-\|	.	.	.	.	24b-/	.	24b-/	.	.	.	.	.	.	.	.
24F\JJ|	.	.	.	.	24f/JJ	.	24f/	.	.	.	.	.	.	.	.
24D\LL|	.	.	8f\J	.	24d/LL	.	24d/	.	.	.	.	.	.	.	.
24F\|	.	.	.	.	24f/	.	24f/	.	.	.	.	.	.	.	.
24D\JJ|	.	.	.	.	24d/JJ	.	24d/JJ	.	.	.	.	.	.	.	.
!	!	!	!	!	!	!	!LO:LB:g=original	!	!	!	!	!	!	!	!
=88	=88	=88	=88	=88	=88	=88	=88	=88	=88	=88	=88	=88	=88	=88	=88
*	*	*	*	*	*	*	*tuplet	*	*	*	*	*	*	*	*
!	!	!	!	!	!LO:TX:t=P:problem:mixed beam	!	!LO:TX:t=P:problem:mixed beam	!	!	!	!	!	!	!	!
4BB-/	.	.	24f\LL	.	24B-/LL	.	24B-/LL	p	2ryy	2ryy	2ryy	8r	.	2ryy	2ryy
!	!	!	!	!	!	!LO:DY:b	!	!	!	!	!	!	!	!	!
.	.	.	24d\	.	24b-\	p	24b-\	.	.	.	.	.	.	.	.
.	.	.	24d\	.	24b-\	.	24b-\	.	.	.	.	.	.	.	.
.	.	.	24d\	.	24b-\	.	24b-\	.	.	.	.	8b-\	ut	.	.
.	.	.	24d\	.	24b-\	.	24b-\	.	.	.	.	.	.	.	.
.	.	.	24d\JJ	.	24b-\JJ	.	24b-\JJ	.	.	.	.	.	.	.	.
*	*	*	*	*	*tuplet	*	*	*	*	*	*	*	*	*	*
*	*	*	*tremolo	*	*tremolo	*	*tremolo	*	*	*	*	*	*	*	*
!	!	!	!LO:TX:a:t=P:problem:w źódle nad tą nutą "6" jako oznaczenie sekstoli	!	!LO:TX:a:t=P:problem:w źódle nad tą nutą "6" jako oznaczenie sekstoli	!	!LO:TX:a:t=P:problem:w źódle nad tą nutą "6" jako oznaczenie sekstoli	!	!	!	!	!	!	!	!
!	!	!	!LO:TX:a:t=P:problem:w źódle wartość 16.	!	!LO:TX:a:t=P:problem:w źódle wartość 16.	!	!LO:TX:a:t=P:problem:w źódle wartość 16.	!	!	!	!	!	!	!	!
!	!	!LO:DY:b:t=pia	!	!	!	!	!	!	!	!	!	!	!	!	!
8B-\L	.	p	24d\LL	.	24b-\LL	.	24b-\LL	.	.	.	.	8b-\	dul-	.	.
.	.	.	24d\	.	24b-\	.	24b-\	.	.	.	.	.	.	.	.
.	.	.	24d\	.	24b-\	.	24b-\	.	.	.	.	.	.	.	.
8B-\J	.	.	24d\	.	24b-\	.	24b-\	.	.	.	.	8b-\	-ces	.	.
.	.	.	24d\	.	24b-\	.	24b-\	.	.	.	.	.	.	.	.
.	.	.	24d\JJ	.	24b-\JJ	.	24b-\JJ	.	.	.	.	.	.	.	.
*	*	*	*Xtremolo	*	*Xtremolo	*	*Xtremolo	*	*	*	*	*	*	*	*
!LO:LB:g=original	!	!	!	!	!	!	!	!	!	!	!	!	!	!	!
=89	=89	=89	=89	=89	=89	=89	=89	=89	=89	=89	=89	=89	=89	=89	=89
!LO:TX:b:i:t=tasto	!	!	!	!	!	!	!	!	!	!	!	!	!	!	!
*	*	*	*tremolo	*	*tremolo	*	*tremolo	*	*	*	*	*	*	*	*
!	!	!	!LO:TX:a:t=P:problem:w źódle nad tą nutą "6" jako oznaczenie sekstoli	!	!LO:TX:a:t=P:problem:w źódle pod tą nutą "6" jako oznaczenie sekstoli	!	!LO:TX:a:t=P:problem:w źódle nad tą nutą "6" jako oznaczenie sekstoli	!	!	!	!	!	!	!	!
!	!	!	!LO:TX:a:t=P:problem:w źódle wartość 16.	!	!LO:TX:a:t=P:problem:w źódle wartość 16.	!	!LO:TX:a:t=P:problem:w źódle wartość 16.	!	!	!	!	!	!	!	!
8B-\L	.	.	24e-\LL	.	24an/LL	.	24cc\LL	.	2ryy	2ryy	2ryy	4cc\	no-	2ryy	2ryy
.	.	.	24e-\	.	24a/	.	24cc\	.	.	.	.	.	.	.	.
.	.	.	24e-\	.	24a/	.	24cc\	.	.	.	.	.	.	.	.
8B-\	.	.	24e-\	.	24a/	.	24cc\	.	.	.	.	.	.	.	.
.	.	.	24e-\	.	24a/	.	24cc\	.	.	.	.	.	.	.	.
.	.	.	24e-\JJ	.	24a/JJ	.	24cc\JJ	.	.	.	.	.	.	.	.
*	*	*	*Xtuplet	*	*	*	*	*	*	*	*	*	*	*	*
*	*	*	*Xtremolo	*	*Xtremolo	*	*Xtremolo	*	*	*	*	*	*	*	*
*	*	*	*tremolo	*	*tremolo	*	*tremolo	*	*	*	*	*	*	*	*
!	!	!	!	!	!LO:TX:a:t=P:problem:w źódle pod tą nutą "6" jako oznaczenie sekstoli	!	!LO:TX:a:t=P:problem:w źódle nad tą nutą "6" jako oznaczenie sekstoli	!	!	!	!	!	!	!	!
!	!	!	!	!	!LO:TX:a:t=P:problem:w źódle wartość 16.	!	!LO:TX:a:t=P:problem:w źódle wartość 16.	!	!	!	!	!	!	!	!
8B-\	.	.	24f\LL	.	24a-X/LL	.	24dd\LL	.	.	.	.	4dd\	-ctis	.	.
.	.	.	24f\	.	24a-/	.	24dd\	.	.	.	.	.	.	.	.
.	.	.	24f\	.	24a-/	.	24dd\	.	.	.	.	.	.	.	.
8B-\J	.	.	24f\	.	24a-/	.	24dd\	.	.	.	.	.	.	.	.
.	.	.	24f\	.	24a-/	.	24dd\	.	.	.	.	.	.	.	.
.	.	.	24f\JJ	.	24a-/JJ	.	24dd\JJ	.	.	.	.	.	.	.	.
*	*	*	*Xtremolo	*	*Xtremolo	*	*Xtremolo	*	*	*	*	*	*	*	*
=90	=90	=90	=90	=90	=90	=90	=90	=90	=90	=90	=90	=90	=90	=90	=90
*tremolo	*	*	*	*	*tremolo	*	*tremolo	*	*	*	*	*	*	*	*
!	!	!	!	!	!LO:TX:a:t=P:problem:w źódle pod tą nutą "6" jako oznaczenie sekstoli	!	!LO:TX:a:t=P:problem:w źódle nad tą nutą "6" jako oznaczenie sekstoli	!	!	!	!	!	!	!	!
!	!	!	!	!	!	!	!LO:TX:a:t=P:problem:w źódle wartość 16.	!	!	!	!	!	!	!	!
8B-\L	.	.	8B-/L	.	24g/LL	.	24ee-\LL	.	2ryy	2ryy	2ryy	16ee-\LL	Stel-	2ryy	2ryy
.	.	.	.	.	24g/	.	24ee-\	.	.	.	.	.	.	.	.
.	.	.	.	.	.	.	.	.	.	.	.	16dd\JJ	.	.	.
.	.	.	.	.	24g/	.	24ee-\	.	.	.	.	.	.	.	.
8B-\	.	.	8B-/	.	24g/	.	24ee-\	.	.	.	.	8ee-\	-la	.	.
.	.	.	.	.	24g/	.	24ee-\	.	.	.	.	.	.	.	.
.	.	.	.	.	24g/JJ	.	24ee-\JJ	.	.	.	.	.	.	.	.
*	*	*	*	*	*Xtremolo	*	*Xtremolo	*	*	*	*	*	*	*	*
*	*	*	*	*	*tremolo	*	*	*	*	*	*	*	*	*	*
*	*	*	*	*	*	*	*Xtuplet	*	*	*	*	*	*	*	*
!	!	!	!	!	!LO:TX:a:t=P:problem:w źódle pod tą nutą "6" jako oznaczenie sekstoli	!	!	!	!	!	!	!	!	!	!
8B-\	.	.	8B-/J	.	24d/LL	.	24ff\LL	.	.	.	.	8r	.	.	.
.	.	.	.	.	24d/	.	24b-\	.	.	.	.	.	.	.	.
.	.	.	.	.	24d/	.	24dd\JJ	.	.	.	.	.	.	.	.
8B-\J	.	.	8r	.	24d/	.	24ff\LL	.	.	.	.	24ff\LL	post	.	.
.	.	.	.	.	24d/	.	24gg\	.	.	.	.	24gg\	.	.	.
.	.	.	.	.	24d/JJ	.	24aa-\JJ	.	.	.	.	24aa-\JJ	.	.	.
*	*	*	*	*	*Xtuplet	*	*	*	*	*	*	*	*	*	*
*Xtremolo	*	*	*	*	*Xtremolo	*	*	*	*	*	*	*	*	*	*
!	!	!	!	!	!	!	!	!	!	!	!	!LO:PB:g=original	!	!	!
=91	=91	=91	=91	=91	=91	=91	=91	=91	=91	=91	=91	=91	=91	=91	=91
8E-\	.	.	8r	.	24e-/LL	.	24gg\LL	.	2ryy	2ryy	2ryy	24gg\LL	Sae-	2ryy	2ryy
.	.	.	.	.	24d/	.	24ff\	.	.	.	.	24ff\	.	.	.
.	.	.	.	.	24e-/	.	24ee-\JJ	.	.	.	.	24ee-\JJ	.	.	.
!	!	!	!LO:TX:t=P:problem:mixed beam	!	!	!	!	!	!	!	!	!	!	!	!
8r	.	.	8B-/L	.	24f/	.	24dd\LL	.	.	.	.	24dd\LL	-vae	.	.
.	.	.	.	.	24g/	.	24ee-\	.	.	.	.	24ee-\	.	.	.
.	.	.	.	.	24a-/JJ	.	24ff\JJ	.	.	.	.	24ff\JJ	.	.	.
8r	.	.	8e-\J	.	24g/LL	.	24ee-\LL	.	.	.	.	24ee-\LL	vim	.	.
.	.	.	.	.	24f/	.	24ff\	.	.	.	.	24ff\	.	.	.
.	.	.	.	.	24e-/JJ	.	24gg\JJ	.	.	.	.	24gg\JJ	.	.	.
8BB-/	X X 7	.	8r	.	24d/LL	.	24ff\LL	.	.	.	.	24ff\LL	pro-	.	.
.	.	.	.	.	24e-/	.	24gg\	.	.	.	.	24gg\	.	.	.
.	.	.	.	.	24f/JJ	.	24aa-\JJ	.	.	.	.	24aa-\JJ	.	.	.
!	!	!	!	!	!	!	!LO:LB:g=original	!	!	!	!	!	!	!	!
=92	=92	=92	=92	=92	=92	=92	=92	=92	=92	=92	=92	=92	=92	=92	=92
8E-\	.	.	8r	.	24e-/LL	.	24gg\LL	.	2ryy	2ryy	2ryy	24gg\LL	-coel-	2ryy	2ryy
.	.	.	.	.	24f/	.	24ff\	.	.	.	.	24ff\	.	.	.
.	.	.	.	.	24g/JJ	.	24ee-\JJ	.	.	.	.	24ee-\JJ	.	.	.
!	!	!	!LO:TX:t=P:problem:mixed beam	!	!	!	!	!	!	!	!	!	!	!	!
8r	.	.	8B-/L	.	24f/LL	.	24dd\LL	.	.	.	.	24dd\LL	.	.	.
.	.	.	.	.	24g/	.	24ee-\	.	.	.	.	24ee-\	.	.	.
.	.	.	.	.	24a-/JJ	.	24ff\JJ	.	.	.	.	24ff\JJ	.	.	.
8r	.	.	8e-\J	.	24g/LL	.	24ee-\LL	.	.	.	.	24ee-\LL	.	.	.
.	.	.	.	.	24f/	.	24ff\	.	.	.	.	24ff\	.	.	.
.	.	.	.	.	24e-/JJ	.	24gg\JJ	.	.	.	.	24gg\JJ	.	.	.
8BB-/	X X 7	.	8r	.	24d/LL	.	24ff\LL	.	.	.	.	24ff\LL	.	.	.
.	.	.	.	.	24e-/	.	24gg\	.	.	.	.	24gg\	.	.	.
.	.	.	.	.	24f/JJ	.	24aa-\JJ	.	.	.	.	24aa-\JJ	.	.	.
=93	=93	=93	=93	=93	=93	=93	=93	=93	=93	=93	=93	=93	=93	=93	=93
4E-\	.	.	4r	.	4e-/	.	8gg\	.	2ryy	2ryy	2ryy	8gg\	-la	2ryy	2ryy
.	.	.	.	.	.	.	4ee-\	.	.	.	.	8ee-\	ful-	.	.
4G\	X X 6	.	4e-\	.	4b-\	.	.	.	.	.	.	8ee-\	-gent	.	.
.	.	.	.	.	.	.	8dd-X\	.	.	.	.	8ee-\	per	.	.
!	!	!	!LO:LB:g=original	!	!	!	!	!	!	!	!	!	!	!	!
=94	=94	=94	=94	=94	=94	=94	=94	=94	=94	=94	=94	=94	=94	=94	=94
.	.	.	.	.	.	.	.	.	.	.	.	8qqdd-X/	.	.	.
8r	.	.	8r	.	8a-/L	.	8cc\L	.	2ryy	2ryy	2ryy	[>4cc\	coe-	2ryy	2ryy
8A-\L	.	.	8e-\	.	8a-/J	.	8cc\J	.	.	.	.	.	.	.	.
8A-\	.	.	4e-\	.	16a-/LL	.	16cc\LL	.	.	.	.	16cc\LL]	.	.	.
.	.	.	.	.	16cc/	.	16ee-\	.	.	.	.	16ee-\JJ	.	.	.
8A-\J	X X 6	.	.	.	16b-/	.	16ddn\	.	.	.	.	16ddn\LL	-li	.	.
.	.	.	.	.	16a-/JJ	.	16cc\JJ	.	.	.	.	16cc\JJ	.	.	.
!	!	!	!	!	!	!	!	!	!	!	!	!LO:LB:g=original	!	!	!
=95	=95	=95	=95	=95	=95	=95	=95	=95	=95	=95	=95	=95	=95	=95	=95
8r	.	.	8r	.	8.g/L	.	8.b-/L	.	2ryy	2ryy	2ryy	8.b-\L	a-	2ryy	2ryy
8B-\L	X 6 4	.	8B-/L	.	.	.	.	.	.	.	.	.	.	.	.
.	.	.	.	.	16e-/Jk	.	16g/Jk	.	.	.	.	16g\Jk	.	.	.
8B-\	X X 3	.	8B-/	.	(<16g/LL	.	(<16b-/LL	.	.	.	.	16b-\LL	.	.	.
.	.	.	.	.	16f/	.	16a-/	.	.	.	.	16a-\JJ	.	.	.
8B-\J	.	.	8B-/J	.	16e-/)	.	16g/	.	.	.	.	16g/LL	-tri-	.	.
.	.	.	.	.	16d/JJ	.	16f/JJ)	.	.	.	.	16f/JJ	.	.	.
=96	=96	=96	=96	=96	=96	=96	=96	=96	=96	=96	=96	=96	=96	=96	=96
*	*	*	*	*	*	*	*tuplet	*	*	*	*	*	*	*	*
!	!	!	!	!	!LO:TX:t=P:problem:mixed beam	!	!LO:TX:t=P:problem:mixed beam	!	!	!	!	!	!	!	!
8E-\L	.	.	8e-\L	.	24e-/LL	.	24g/LL	.	2ryy	2ryy	2ryy	8e-/	-a	2ryy	2ryy
.	.	.	.	.	24ee-\	.	24bb-\	.	.	.	.	.	.	.	.
.	.	.	.	.	24ee-\	.	24bb-\	.	.	.	.	.	.	.	.
8G\	X X 6	.	8g\	.	24ee-\	.	24bb-\	.	.	.	.	8ee-\	per	.	.
.	.	.	.	.	24ee-\	.	24bb-\	.	.	.	.	.	.	.	.
.	.	.	.	.	24ee-\JJ	.	24bb-\JJ	.	.	.	.	.	.	.	.
*	*	*	*	*	*tuplet	*	*	*	*	*	*	*	*	*	*
*	*	*	*	*	*tremolo	*	*tremolo	*	*	*	*	*	*	*	*
!	!	!	!	!	!LO:TX:a:t=P:problem:w źódle nad tą nutą "6" jako oznaczenie sekstoli	!	!LO:TX:a:t=P:problem:w źódle nad tą nutą "6" jako oznaczenie sekstoli	!	!	!	!	!	!	!	!
!	!	!	!	!	!LO:TX:a:t=P:problem:w źódle wartość 16.	!	!	!	!	!	!	!	!	!	!
8A-\	.	.	8a-\	.	24ee-\LL	.	24ccc\LL	.	.	.	.	8cc\	coe-	.	.
.	.	.	.	.	24ee-\	.	24ccc\	.	.	.	.	.	.	.	.
.	.	.	.	.	24ee-\	.	24ccc\	.	.	.	.	.	.	.	.
8A-\J	.	.	8a-\J	.	24ee-\	.	24ccc\	.	.	.	.	8aa-\	-li	.	.
.	.	.	.	.	24ee-\	.	24ccc\	.	.	.	.	.	.	.	.
.	.	.	.	.	24ee-\JJ	.	24ccc\JJ	.	.	.	.	.	.	.	.
*	*	*	*	*	*Xtremolo	*	*Xtremolo	*	*	*	*	*	*	*	*
!	!	!	!	!	!	!	!LO:LB:g=original	!	!	!	!	!	!	!	!
=97	=97	=97	=97	=97	=97	=97	=97	=97	=97	=97	=97	=97	=97	=97	=97
!LO:TX:t=P:problem:mixed beam	!	!	!LO:TX:t=P:problem:mixed beam	!	!	!	!	!	!	!	!	!	!	!	!
*	*	*	*	*	*tremolo	*	*tremolo	*	*	*	*	*	*	*	*
!	!	!	!	!	!LO:TX:a:t=P:problem:w źódle nad tą nutą "6" jako oznaczenie sekstoli	!	!LO:TX:a:t=P:problem:w źódle nad tą nutą "6" jako oznaczenie sekstoli	!	!	!	!	!	!	!	!
!	!	!	!	!	!LO:TX:a:t=P:problem:w źódle wartość 16.	!	!LO:TX:a:t=P:problem:w źódle wartość 16.	!	!	!	!	!	!	!	!
8B-\L	.	.	8b-\L	.	24ee-\LL	.	24ggLL 24b-\	.	2ryy	2ryy	2ryy	4b-\	a-	2ryy	2ryy
.	.	.	.	.	24ee-\	.	24gg 24b-\	.	.	.	.	.	.	.	.
.	.	.	.	.	24ee-\	.	24gg 24b-\	.	.	.	.	.	.	.	.
8B-\	X X 4	.	8b-\	.	24ee-\	.	24gg 24b-\	.	.	.	.	.	.	.	.
.	.	.	.	.	24ee-\	.	24gg 24b-\	.	.	.	.	.	.	.	.
.	.	.	.	.	24ee-\JJ	.	24ggJJ 24b-\	.	.	.	.	.	.	.	.
*	*	*	*	*	*Xtremolo	*	*Xtremolo	*	*	*	*	*	*	*	*
*	*	*	*	*	*tremolo	*	*tremolo	*	*	*	*	*	*	*	*
!	!	!	!	!	!LO:TX:a:t=P:problem:w źódle nad tą nutą "6" jako oznaczenie sekstoli	!	!LO:TX:a:t=P:problem:w źódle nad tą nutą "6" jako oznaczenie sekstoli	!	!	!	!	!	!	!	!
!	!	!	!	!	!LO:TX:a:t=P:problem:w źódle wartość 16.	!	!LO:TX:a:t=P:problem:w źódle wartość 16.	!	!	!	!	!	!	!	!
8BB-/	X X 3	.	8B-/	.	24dd\LL	.	24ffLL 24b-\	.	.	.	.	8.ff\	.	.	.
.	.	.	.	.	24dd\	.	24ff 24b-\	.	.	.	.	.	.	.	.
.	.	.	.	.	24dd\	.	24ff 24b-\	.	.	.	.	.	.	.	.
8BB-/J	.	.	8B-/J	.	24dd\	.	24ff 24b-\	.	.	.	.	.	.	.	.
.	.	.	.	.	24dd\	.	24ff 24b-\	.	.	.	.	.	.	.	.
.	.	.	.	.	.	.	.	.	.	.	.	16ff\	-tri-	.	.
.	.	.	.	.	24dd\JJ	.	24ffJJ 24b-\	.	.	.	.	.	.	.	.
*	*	*	*	*	*Xtremolo	*	*Xtremolo	*	*	*	*	*	*	*	*
!LO:LB:g=original	!	!	!	!	!	!	!	!	!	!	!	!	!	!	!
=98	=98	=98	=98	=98	=98	=98	=98	=98	=98	=98	=98	=98	=98	=98	=98
*	*	*	*	*	*tremolo	*	*tremolo	*	*	*	*	*	*	*	*
!	!	!	!	!	!LO:TX:a:t=P:problem:w źódle nad tą nutą "6" jako oznaczenie sekstoli	!	!LO:TX:a:t=P:problem:w źódle nad tą nutą "6" jako oznaczenie sekstoli	!	!	!	!	!	!	!	!
!	!	!	!	!	!LO:TX:a:t=P:problem:w źódle wartość 16.	!	!LO:TX:a:t=P:problem:w źódle wartość 16.	!	!	!	!	!	!	!	!
8E-\L	.	.	8e-\L	.	24ee-\LL	.	24ggLL 24b-\	.	2ryy	2ryy	2ryy	4gg\	-a	2ryy	2ryy
.	.	.	.	.	24ee-\	.	24gg 24b-\	.	.	.	.	.	.	.	.
.	.	.	.	.	24ee-\	.	24gg 24b-\	.	.	.	.	.	.	.	.
8E-\	.	.	8e-\	.	24ee-\	.	24gg 24b-\	.	.	.	.	.	.	.	.
.	.	.	.	.	24ee-\	.	24gg 24b-\	.	.	.	.	.	.	.	.
.	.	.	.	.	24ee-\JJ	.	24ggJJ 24b-\	.	.	.	.	.	.	.	.
*	*	*	*	*	*Xtremolo	*	*Xtremolo	*	*	*	*	*	*	*	*
*	*	*	*	*	*tremolo	*	*tremolo	*	*	*	*	*	*	*	*
!	!	!	!	!	!LO:TX:a:t=P:problem:w źódle nad tą nutą "6" jako oznaczenie sekstoli	!	!LO:TX:a:t=P:problem:w źódle nad tą nutą "6" jako oznaczenie sekstoli	!	!	!	!	!	!	!	!
!	!	!	!	!	!LO:TX:a:t=P:problem:w źódle wartość 16.	!	!LO:TX:a:t=P:problem:w źódle wartość 16.	!	!	!	!	!	!	!	!
8G\	X X 6	.	8g\	.	24ee-\LL	.	24bb-\LL	.	.	.	.	4ee-\	ful-	.	.
.	.	.	.	.	24ee-\	.	24bb-\	.	.	.	.	.	.	.	.
.	.	.	.	.	24ee-\	.	24bb-\	.	.	.	.	.	.	.	.
8G\J	.	.	8g\J	.	24ee-\	.	24bb-\	.	.	.	.	.	.	.	.
.	.	.	.	.	24ee-\	.	24bb-\	.	.	.	.	.	.	.	.
.	.	.	.	.	24ee-\JJ	.	24bb-\JJ	.	.	.	.	.	.	.	.
*	*	*	*	*	*Xtremolo	*	*Xtremolo	*	*	*	*	*	*	*	*
=99	=99	=99	=99	=99	=99	=99	=99	=99	=99	=99	=99	=99	=99	=99	=99
*tremolo	*	*	*tremolo	*	*tremolo	*	*tremolo	*	*	*	*	*	*	*	*
!	!	!	!	!	!LO:TX:a:t=P:problem:w źódle nad tą nutą "6" jako oznaczenie sekstoli	!	!LO:TX:a:t=P:problem:w źódle nad tą nutą "6" jako oznaczenie sekstoli	!	!	!	!	!	!	!	!
!	!	!	!	!	!LO:TX:a:t=P:problem:w źódle wartość 16.	!	!LO:TX:a:t=P:problem:w źódle wartość 16.	!	!	!	!	!	!	!	!
8A-\L	.	.	8a-\L	.	24ee-\LL	.	24ccc\LL	.	2ryy	2ryy	2ryy	4cc\	-gent	2ryy	2ryy
.	.	.	.	.	24ee-\	.	24ccc\	.	.	.	.	.	.	.	.
.	.	.	.	.	24ee-\	.	24ccc\	.	.	.	.	.	.	.	.
8A-\	.	.	8a-\	.	24ee-\	.	24ccc\	.	.	.	.	.	.	.	.
.	.	.	.	.	24ee-\	.	24ccc\	.	.	.	.	.	.	.	.
.	.	.	.	.	24ee-\JJ	.	24ccc\JJ	.	.	.	.	.	.	.	.
*	*	*	*	*	*Xtremolo	*	*Xtremolo	*	*	*	*	*	*	*	*
*	*	*	*	*	*tremolo	*	*tremolo	*	*	*	*	*	*	*	*
!	!	!	!	!	!LO:TX:a:t=P:problem:w źódle nad tą nutą "6" jako oznaczenie sekstoli	!	!LO:TX:a:t=P:problem:w źódle nad tą nutą "6" jako oznaczenie sekstoli	!	!	!	!	!	!	!	!
!	!	!	!	!	!LO:TX:a:t=P:problem:w źódle wartość 16.	!	!LO:TX:a:t=P:problem:w źódle wartość 16.	!	!	!	!	!	!	!	!
8A-\	.	.	8a-\	.	24ee-\LL	.	24ccc\LL	.	.	.	.	4aa-\	per	.	.
.	.	.	.	.	24ee-\	.	24ccc\	.	.	.	.	.	.	.	.
.	.	.	.	.	24ee-\	.	24ccc\	.	.	.	.	.	.	.	.
8A-\J	.	.	8a-\J	.	24ee-\	.	24ccc\	.	.	.	.	.	.	.	.
.	.	.	.	.	24ee-\	.	24ccc\	.	.	.	.	.	.	.	.
.	.	.	.	.	24ee-\JJ	.	24ccc\JJ	.	.	.	.	.	.	.	.
*Xtremolo	*	*	*Xtremolo	*	*Xtremolo	*	*Xtremolo	*	*	*	*	*	*	*	*
=100	=100	=100	=100	=100	=100	=100	=100	=100	=100	=100	=100	=100	=100	=100	=100
*tremolo	*	*	*tremolo	*	*tremolo	*	*tremolo	*	*	*	*	*	*	*	*
!	!	!	!	!	!LO:TX:a:t=P:problem:w źódle nad tą nutą "6" jako oznaczenie sekstoli	!	!LO:TX:a:t=P:problem:w źódle nad tą nutą "6" jako oznaczenie sekstoli	!	!	!	!	!	!	!	!
!	!	!	!	!	!	!	!	!LO:HP:b	!	!	!	!	!	!	!
!	!	!	!	!	!LO:TX:a:t=P:problem:w źódle wartość 16.	!	!LO:TX:a:t=P:problem:w źódle wartość 16.	!	!	!	!	!	!	!	!
8B-\L	X 6 4	.	8b-\L	.	24ee-\LL	.	24ggLL 24b-\	<	2ryy	2ryy	2ryy	2b-\	a-	2ryy	2ryy
.	.	.	.	.	24ee-\	.	24gg 24b-\	.	.	.	.	.	.	.	.
.	.	.	.	.	24ee-\	.	24gg 24b-\	.	.	.	.	.	.	.	.
8B-\	.	.	8b-\	.	24ee-\	.	24gg 24b-\	.	.	.	.	.	.	.	.
.	.	.	.	.	24ee-\	.	24gg 24b-\	.	.	.	.	.	.	.	.
.	.	.	.	.	24ee-\JJ	.	24ggJJ 24b-\	.	.	.	.	.	.	.	.
*	*	*	*	*	*Xtremolo	*	*Xtremolo	*	*	*	*	*	*	*	*
*	*	*	*	*	*tremolo	*	*tremolo	*	*	*	*	*	*	*	*
!	!	!	!	!	!LO:TX:a:t=P:problem:w źódle nad tą nutą "6" jako oznaczenie sekstoli	!	!LO:TX:a:t=P:problem:w źódle nad tą nutą "6" jako oznaczenie sekstoli	!	!	!	!	!	!	!	!
!	!	!	!	!	!LO:TX:a:t=P:problem:w źódle wartość 16.	!	!LO:TX:a:t=P:problem:w źódle wartość 16.	!	!	!	!	!	!	!	!
8B-\	.	.	8b-\	.	24ee-\LL	.	24ggLL 24b-\	.	.	.	.	.	.	.	.
.	.	.	.	.	24ee-\	.	24gg 24b-\	.	.	.	.	.	.	.	.
.	.	.	.	.	24ee-\	.	24gg 24b-\	.	.	.	.	.	.	.	.
8B-\J	.	.	8b-\J	.	24ee-\	.	24gg 24b-\	.	.	.	.	.	.	.	.
.	.	.	.	.	24ee-\	.	24gg 24b-\	.	.	.	.	.	.	.	.
.	.	.	.	.	24ee-\JJ	.	24ggJJ 24b-\	.	.	.	.	.	.	.	.
*Xtremolo	*	*	*Xtremolo	*	*Xtremolo	*	*Xtremolo	*	*	*	*	*	*	*	*
=101	=101	=101	=101	=101	=101	=101	=101	=101	=101	=101	=101	=101	=101	=101	=101
*tremolo	*	*	*tremolo	*	*tremolo	*	*tremolo	*	*	*	*	*	*	*	*
!	!	!	!	!	!LO:TX:a:t=P:problem:w źódle wartość 16.	!	!LO:TX:a:t=P:problem:w źódle wartość 16.	!	!	!	!	!	!	!	!
!	!	!	!	!	!LO:TX:a:t=P:problem:w źódle nad tą nutą "6" jako oznaczenie sekstoli	!	!LO:TX:a:t=P:problem:w źódle nad tą nutą "6" jako oznaczenie sekstoli	!	!	!	!	!	!	!	!
8BB-/L	X 5 3	.	8B-/L	.	24dd\LL	.	24ffLL 24b-\	.	2ryy	2ryy	2ryy	4.ff\	.	2ryy	2ryy
.	.	.	.	.	24dd\	.	24ff 24b-\	.	.	.	.	.	.	.	.
.	.	.	.	.	24dd\	.	24ff 24b-\	.	.	.	.	.	.	.	.
8BB-/	.	.	8B-/	.	24dd\	.	24ff 24b-\	.	.	.	.	.	.	.	.
.	.	.	.	.	24dd\	.	24ff 24b-\	.	.	.	.	.	.	.	.
.	.	.	.	.	24dd\JJ	.	24ffJJ 24b-\	.	.	.	.	.	.	.	.
*	*	*	*	*	*Xtremolo	*	*Xtremolo	*	*	*	*	*	*	*	*
*	*	*	*	*	*tremolo	*	*tremolo	*	*	*	*	*	*	*	*
!	!	!	!	!	!LO:TX:a:t=P:problem:w źódle wartość 16.	!	!LO:TX:a:t=P:problem:w źódle wartość 16.	!	!	!	!	!	!	!	!
!	!	!	!	!	!LO:TX:a:t=P:problem:w źódle nad tą nutą "6" jako oznaczenie sekstoli	!	!LO:TX:a:t=P:problem:w źódle nad tą nutą "6" jako oznaczenie sekstoli	!	!	!	!	!	!	!	!
8BB-/	.	.	8B-/	.	24dd\LL	.	24ffLL 24b-\	.	.	.	.	.	.	.	.
.	.	.	.	.	24dd\	.	24ff 24b-\	.	.	.	.	.	.	.	.
.	.	.	.	.	24dd\	.	24ff 24b-\	.	.	.	.	.	.	.	.
8BB-/J	.	.	8B-/J	.	24dd\	.	24ff 24b-\	.	.	.	.	8ff\	-tri-	.	.
.	.	.	.	.	24dd\	.	24ff 24b-\	.	.	.	.	.	.	.	.
.	.	.	.	.	24dd\JJ	.	24ffJJ 24b-\	.	.	.	.	.	.	.	.
*Xtremolo	*	*	*Xtremolo	*	*Xtremolo	*	*Xtremolo	*	*	*	*	*	*	*	*
!	!	!	!	!	!LO:LB:g=original	!	!	!	!	!	!	!LO:LB:g=original	!	!	!
=102	=102	=102	=102	=102	=102	=102	=102	=102	=102	=102	=102	=102	=102	=102	=102
*	*	*	*	*	*Xtuplet	*	*Xtuplet	*	*	*	*	*	*	*	*
!	!	!	!	!	!LO:TX:t=P:problem:mixed beam	!	!LO:TX:t=P:problem:mixed beam	!	!	!	!	!	!	!	!
!	!	!	!	!	!	!LO:DY:b:t=fo	!	!LO:DY:b:t=for.	!	!	!	!	!	!	!
24E-'\LL	.	.	24e-\LL	.	24ee-\LL	f	24ee-\LL	f	2ryy	2ryy	2ryy	4ee-\	-a	2ryy	2ryy
!	!	!	!	!LO:DY:b:t=fo	!	!	!	!	!	!	!	!	!	!	!
24E-'\	.	.	24e-\	f	24e-/	.	24e-/	.	.	.	.	.	.	.	.
!	!	!LO:DY:b:t=for	!	!	!	!	!	!	!	!	!	!	!	!	!
24E-'\JJ	.	f	24e-\JJ	.	24e-/JJ	.	24e-/JJ	.	.	.	.	.	.	.	.
24E-'\LL	.	.	24e-\LL	.	24e-/LL	.	24e-/LL	.	.	.	.	.	.	.	.
24G'\	.	.	24g\	.	24g/	.	24g/	.	.	.	.	.	.	.	.
24E-'\JJ	.	.	24e-\JJ	.	24e-/JJ	.	24e-/JJ	.	.	.	.	.	.	.	.
24C'/LL	.	.	24c\LL	.	24c/LL	.	24c/LL	.	.	.	.	8r	.	.	.
24E-'/	.	.	24e-\	.	24e-/	.	24e-/	.	.	.	.	.	.	.	.
24C'/JJ	.	.	24c\JJ	.	24c/JJ	.	24c/JJ	.	.	.	.	.	.	.	.
24AAn'/LL	.	.	24An/LL	.	24An/LL	.	24An/LL	.	.	.	.	8ee-\	per	.	.
24C'/	.	.	24c/	.	24c/	.	24c/	.	.	.	.	.	.	.	.
24AA/JJ	.	.	24A/JJ	.	24A/JJ	.	24A/JJ	.	.	.	.	.	.	.	.
!	!	!	!	!	!	!	!LO:LB:g=original	!	!	!	!	!	!	!	!
=103	=103	=103	=103	=103	=103	=103	=103	=103	=103	=103	=103	=103	=103	=103	=103
2BB-;/	.	.	4B-;/	.	4B-;/	.	4B-;/	.	2ryy	2ryy	2ryy	4.ff;\	a-	2ryy	2ryy
.	.	.	4r	.	4r	.	4r	.	.	.	.	.	.	.	.
.	.	.	.	.	.	.	.	.	.	.	.	8ff\	-tri-	.	.
!	!	!	!LO:LB:g=original	!	!	!	!	!	!	!	!	!	!	!	!
=104	=104	=104	=104	=104	=104	=104	=104	=104	=104	=104	=104	=104	=104	=104	=104
*	*	*	*	*	*	*	*tuplet	*	*	*	*	*	*	*	*
!	!	!	!	!	!	!	!LO:TUP:b	!	!	!	!	!	!	!	!
!	!	!	!	!	!	!	!LO:TX:t=P:problem:mixed beam	!	!	!	!	!	!	!	!
!	!	!	!	!	!	!	!	!LO:DY:b	!	!	!	!	!	!	!
!	!	!	!	!	!	!	!	!LO:DY:rj	!	!	!	!	!	!	!
4E-\	.	.	4g\	.	24g/LL	.	24ee-\LL	ff	2ryy	2ryy	2ryy	4ee-\	-a	2ryy	2ryy
.	.	.	.	.	24e-/	.	24e-/	.	.	.	.	.	.	.	.
.	.	.	.	.	24e-/JJ	.	24e-/	.	.	.	.	.	.	.	.
.	.	.	.	.	24e-/LL	.	24e-/	.	.	.	.	.	.	.	.
.	.	.	.	.	24e-/	.	24e-/	.	.	.	.	.	.	.	.
.	.	.	.	.	24e-/JJ	.	24e-/JJ	.	.	.	.	.	.	.	.
*	*	*	*	*	*	*	*Xtuplet	*	*	*	*	*	*	*	*
!	!	!	!	!	!LO:TX:t=P:problem:mixed beam	!	!LO:TX:t=P:problem:mixed beam	!	!	!	!	!	!	!	!
8r	.	.	4f\	.	24b-\LL	.	24b-\LL	.	.	.	.	4r	.	.	.
.	.	.	.	.	24B-/	.	24B-/	.	.	.	.	.	.	.	.
.	.	.	.	.	24B-/JJ	.	24B-\	.	.	.	.	.	.	.	.
8D\	X X 6	.	.	.	24B-/LL	.	24B-/	.	.	.	.	.	.	.	.
.	.	.	.	.	24B-/	.	24B-/	.	.	.	.	.	.	.	.
.	.	.	.	.	24B-/JJ	.	24B-/JJ	.	.	.	.	.	.	.	.
=105	=105	=105	=105	=105	=105	=105	=105	=105	=105	=105	=105	=105	=105	=105	=105
!	!	!	!	!	!LO:TX:t=P:problem:mixed beam	!	!LO:TX:t=P:problem:mixed beam	!	!	!	!	!	!	!	!
!	!	!	!	!	!	!	!	!	!	!	!	!LO:N:vis=00	!	!	!
4C/	.	.	4e-\	.	24ee-\LL	.	24ee-\LL	.	2ryy	2ryy	2ryy	0r	.	2ryy	2ryy
.	.	.	.	.	24e-/	.	24e-/	.	.	.	.	.	.	.	.
.	.	.	.	.	24e-/JJ	.	24e-/	.	.	.	.	.	.	.	.
*	*	*	*	*	*tremolo	*	*	*	*	*	*	*	*	*	*
!	!	!	!	!	!LO:TX:a:t=P:problem:w źódle wartość 16	!	!	!	!	!	!	!	!	!	!
.	.	.	.	.	24e-/LL	.	24e-/	.	.	.	.	.	.	.	.
.	.	.	.	.	24e-/	.	24e-/	.	.	.	.	.	.	.	.
.	.	.	.	.	24e-/JJ	.	24e-/JJ	.	.	.	.	.	.	.	.
*	*	*	*	*	*Xtremolo	*	*	*	*	*	*	*	*	*	*
8r	.	.	4e-\	.	24bb-\LL	.	24bb-\LL	.	.	.	.	.	.	.	.
.	.	.	.	.	24dd-X\	.	24dd-X\	.	.	.	.	.	.	.	.
.	.	.	.	.	24cc\JJ	.	24dd-\	.	.	.	.	.	.	.	.
*	*	*	*	*	*tremolo	*	*	*	*	*	*	*	*	*	*
!	!	!	!	!	!LO:TX:a:t=P:problem:w źódle wartość 16	!	!	!	!	!	!	!	!	!	!
8G\	X 6 3	.	.	.	24dd-\LL	.	24dd-\	.	.	.	.	.	.	.	.
.	X X 5	.	.	.	24dd-\	.	24dd-\	.	.	.	.	.	.	.	.
.	.	.	.	.	24dd-\JJ	.	24dd-\JJ	.	.	.	.	.	.	.	.
*	*	*	*	*	*Xtremolo	*	*	*	*	*	*	*	*	*	*
!LO:LB:g=original	!	!	!	!	!LO:LB:g=original	!	!	!	!	!	!	!	!	!	!
=106	=106	=106	=106	=106	=106	=106	=106	=106	=106	=106	=106	=106	=106	=106	=106
*	*	*	*	*	*^	*	*	*	*	*	*	*	*	*	*
!LO:TX:t=P:problem:mixed beam	!	!	!LO:TX:t=P:problem:mixed beam	!	!	!	!	!	!	!	!	!	!	!	!	!
8A-\L	.	.	8e-\L	.	24cc\LL	4ryy	.	24cc\LL	.	2ryy	2ryy	2ryy	.	.	2ryy	2ryy
.	.	.	.	.	24ccc\	.	.	24ccc\	.	.	.	.	.	.	.	.
.	.	.	.	.	24ccc\JJ	.	.	24bb-\	.	.	.	.	.	.	.	.
8A-\	.	.	8a-\	.	24aa-\LL	.	.	24aa-\	.	.	.	.	.	.	.	.
.	.	.	.	.	24gg\	.	.	24gg\	.	.	.	.	.	.	.	.
.	.	.	.	.	24ff\JJ	.	.	24ff\JJ	.	.	.	.	.	.	.	.
!	!	!	!	!	!LO:TX:t=P:problem:mixed beam	!	!	!	!	!	!	!	!	!	!	!
8B-\	X X 4	.	8b-\	.	8ee-\L	8ryy	.	8ee-\L	.	.	.	.	.	.	.	.
8BB-/J	X X 3	.	8B-/J	.	8b-/J	8a-\	.	8ff\J	.	.	.	.	.	.	.	.
!	!	!	!	!	!	!	!	!LO:LB:g=original	!	!	!	!	!	!	!	!
*	*	*	*	*	*v	*v	*	*	*	*	*	*	*	*	*	*
=107	=107	=107	=107	=107	=107	=107	=107	=107	=107	=107	=107	=107	=107	=107	=107
8E-\L	.	.	16g\LL	.	16g/LL	.	2ee-\	.	2ryy	2ryy	2ryy	.	.	2ryy	2ryy
.	.	.	16e-\	.	16B-/	.	.	.	.	.	.	.	.	.	.
!	!	!LO:DY:b:t=pia	!	!	!	!	!	!	!	!	!	!	!	!	!
8E-\	.	p	16g\	.	16B-/	.	.	.	.	.	.	.	.	.	.
.	.	.	16e-\JJ	.	16B-/JJ	.	.	.	.	.	.	.	.	.	.
*	*	*	*	*	*tremolo	*	*	*	*	*	*	*	*	*	*
8G\	X X 6	.	16g\LL	.	16B-/LL	.	.	.	.	.	.	.	.	.	.
.	.	.	16e-\	.	16B-/	.	.	.	.	.	.	.	.	.	.
8E-\J	.	.	16g\	.	16B-/	.	.	.	.	.	.	.	.	.	.
.	.	.	16e-\JJ	.	16B-/JJ	.	.	.	.	.	.	.	.	.	.
*	*	*	*	*	*Xtremolo	*	*	*	*	*	*	*	*	*	*
=108	=108	=108	=108	=108	=108	=108	=108	=108	=108	=108	=108	=108	=108	=108	=108
*	*	*	*	*	*tremolo	*	*	*	*	*	*	*	*	*	*
!	!	!	!	!	!	!	!LO:N:vis=16	!	!	!	!	!	!	!	!
2BB-/	X X 7	.	16a-\LL	.	16B-/LL	.	8r	.	2ryy	2ryy	2ryy	.	.	2ryy	2ryy
.	.	.	16f\	.	16B-/	.	.	.	.	.	.	.	.	.	.
.	.	.	16a-\	.	16B-/	.	16.dd\LL	.	.	.	.	.	.	.	.
.	.	.	16f\JJ	.	16B-/	.	.	.	.	.	.	.	.	.	.
.	.	.	.	.	.	.	32ee-\JJk	.	.	.	.	.	.	.	.
.	.	.	16a-\LL	.	16B-/	.	16.ff\LL	.	.	.	.	.	.	.	.
.	.	.	16f\	.	16B-/	.	.	.	.	.	.	.	.	.	.
.	.	.	.	.	.	.	32gg\K	.	.	.	.	.	.	.	.
.	.	.	16a-\	.	16B-/	.	16.aa-\	.	.	.	.	.	.	.	.
.	.	.	16f\JJ	.	16B-/JJ	.	.	.	.	.	.	.	.	.	.
.	.	.	.	.	.	.	32dd\JJk	.	.	.	.	.	.	.	.
*	*	*	*	*	*Xtremolo	*	*	*	*	*	*	*	*	*	*
=109	=109	=109	=109	=109	=109	=109	=109	=109	=109	=109	=109	=109	=109	=109	=109
!	!	!	!LO:TX:t=P:problem:mixed beam	!	!	!	!LO:TX:t=P:problem:mixed beam	!	!	!	!	!	!	!	!
!	!	!	!	!	!	!	!	!	!	!	!	!LO:N:vis=1	!	!	!
8E-\L	.	.	8g\L	.	8e-L 8G/	.	8ee-\L	.	2ryy	2ryy	2ryy	1r	.	2ryy	2ryy
!	!	!LO:DY:b:t=for	!	!	!	!	!	!	!	!	!	!	!	!	!
8E-\	.	f	8B-/	.	8e- 8G/	.	8e-/ 8G/	.	.	.	.	.	.	.	.
8E-\	.	.	8B-/	.	8e- 8G/	.	8e-/ 8G/	.	.	.	.	.	.	.	.
8E-\J	.	.	8B-/J	.	8e-J 8G/	.	8e-/J 8G/	.	.	.	.	.	.	.	.
=110	=110	=110	=110	=110	=110	=110	=110	=110	=110	=110	=110	=110	=110	=110	=110
4E-\	.	.	4B-/	.	4e- 4G/	.	4e- 4G/	.	2ryy	2ryy	2ryy	.	.	2ryy	2ryy
4r	.	.	4r	.	4r	.	4r	.	.	.	.	.	.	.	.
!LO:TX:b:i:t=Sieque Chorus	!	!	!LO:TX:b:i:t=V&colon; S[ubit]o	!	!LO:TX:b:i:t=Chorus Sieq(ue)	!	!LO:TX:b:i:t=V.S[ubit]o.	!	!	!	!	!	!	!	!
==	==	==	==	==	==	==	==	==	==	==	==	==	==	==	==
*-	*-	*-	*-	*-	*-	*-	*-	*-	*-	*-	*-	*-	*-	*-	*-
!!!system-decoration: [g1][g2][g3]s10
!!!RDF**kern: > = above
!!!RDF**kern: < = below
!!!EED: Antoni Szymański
!!!EST: 2021-01-06
!!!ENC: Tomasz Grochalski
!!!END: 2021-01-03
!!!RDF**kern: | = vertical stroke
